!!!!SEGMENT: pl-cz--ii-187--001-003_orlowski-michal--sinfonia-in-f-rondo.krn
!!!cenid: 17xx:1021
!!!COM: Orłowski, Michał
!!!COM-rismID: pe30020336
!!!CDT: ~1700-~1799
!!!CNT:
!!!OPR: Sinfonia in F
!!!OTL: Rondo
!!!OMV: 003
!!!PDT:
!!!AGN: Secular
!!!SMS-siglum: PL-CZ
!!!SMS-shelfmark: II-187
!!!SMS-shelfwork: 001-003 M
!!!SMS-variant:
!!!SMS-altvar:
!!!NIFC-rismSourceID: 300000946
!!!NIFC-islandoraID: pl-cz:32738
!!!URL-pdf-islandora: https://repozytorium.nifc.pl/islandora/object/pl-cz%3A32738/datastream/PDF/view
!!!URL-scan:
!!!ONB-nifc: UWAGA: części Sinfonii: Allegro moderato, Andante, Rondo
!!!AIN: 1 cbass 2 cornt 1 fagot 2 oboe 1 viola 2 violn
!!!key: F-
**kern	**dynam	**kern	**dynam	**kern	**dynam	**kern	**dynam	**kern	**kern	**kern	**kern	**kern
*part9	*part9	*part8	*part8	*part7	*part7	*part6	*part6	*part5	*part4	*part3	*part2	*part1
*staff9	*	*staff8	*	*staff7	*	*staff6	*	*staff5	*staff4	*staff3	*staff2	*staff1
*I"Baſso.	*	*I"Viola Obl:	*	*I"Violino Secondo	*	*I"Violino Primo	*	*I"Corno in F	*I"Corno in F	*I"Fagotto Concertatto.	*I"Oboe Secondo.	*I"Oboe Primo Concertatto
*Icbass	*	*Iviola	*	*Ivioln	*	*Ivioln	*	*Icornt	*Icornt	*Ifagot	*Ioboe	*Ioboe
*ICstr	*	*ICstr	*	*ICstr	*	*ICstr	*	*ICbrass	*ICbrass	*ICww	*ICww	*ICww
*IG	*	*	*	*	*	*	*	*	*	*	*	*
*I'cb	*	*I'vla	*	*I'vl II	*	*I'vl I	*	*I'C. in F	*I'C. in F	*I'fag	*I'ob II	*I'ob I
*clefF4	*	*clefC3	*	*clefG2	*	*clefG2	*	*clefG2	*clefG2	*clefF4	*clefG2	*clefG2
*	*	*	*	*	*	*	*	*ITrd4c7	*ITrd4c7	*	*	*
*k[b-]	*	*k[b-]	*	*k[b-]	*	*k[b-]	*	*k[b-]	*k[b-]	*k[b-]	*k[b-]	*k[b-]
*F-:	*	*F-:	*	*F-:	*	*F-:	*	*F-:	*F-:	*F-:	*F-:	*F-:
*M2/4	*	*M2/4	*	*M2/4	*	*M2/4	*	*M2/4	*M2/4	*M2/4	*M2/4	*M2/4
=1	=1	=1	=1	=1	=1	=1	=1	=1	=1	=1	=1	=1
!LO:TX:a:B:t=Allegro	!	!LO:TX:a:B:t=Allegro	!	!LO:TX:a:B:t=Allegro	!	!LO:TX:a:B:t=Allegro	!	!LO:TX:a:B:t=allegro in F.	!LO:TX:a:B:t=allegro in F.	!LO:TX:t=P:problem=brak skanu części Rondo [Allegro]	!LO:TX:a:B:t=Allegro	!LO:TX:a:B:t=Allegro
*2\right	*	*	*	*	*	*2\right	*	*2\right	*2\right	*	*	*2\right
!	!LO:DY:b:t=pia	!	!	!	!LO:DY:b:t=pia	!	!LO:DY:b:t=pia	!	!	!	!	!
4FF/	p	2r	.	4A/	p	4f/	p	2r	2r	2ryy	4a'/	4ff\
4F\	.	.	.	4f/	.	4a/	.	.	.	.	4ff'\	4aa\
=2	=2	=2	=2	=2	=2	=2	=2	=2	=2	=2	=2	=2
!	!	!	!	!	!	!LO:TX:t=P:problem=all\right&colon; global	!	!	!	!	!	!
4FF/	.	2r	.	(4.a/	.	(4.cc\	.	2r	2r	2ryy	(4.aa\	4.ccc\
4F\	.	.	.	.	.	.	.	.	.	.	.	.
.	.	.	.	8g/)	.	8bn\)	.	.	.	.	8gg\)	8bbn\
=3	=3	=3	=3	=3	=3	=3	=3	=3	=3	=3	=3	=3
4FF/	.	2r	.	(8a/L	.	(8cc\L	.	2r	2r	2ryy	(8aa\L	(8ccc\L
.	.	.	.	8g/)	.	8bn\)	.	.	.	.	8gg\)	8bbn\)
4F\	.	.	.	(8a/	.	(8cc\	.	.	.	.	(8aa\	(8ccc\
.	.	.	.	8b-/J)	.	8dd\J)	.	.	.	.	8bb-\J)	8ddd\J)
=4	=4	=4	=4	=4	=4	=4	=4	=4	=4	=4	=4	=4
4FF/	.	2r	.	(4.a/	.	(4.cc\	.	2r	2r	2ryy	(4.aa\	(4.ccc\
4F\	.	.	.	.	.	.	.	.	.	.	.	.
.	.	.	.	8f/)	.	8a\)	.	.	.	.	8ff\)	8aa\)
=5	=5	=5	=5	=5	=5	=5	=5	=5	=5	=5	=5	=5
4FF/	.	2r	.	(8a/L	.	(8cc\L	.	2r	2r	2ryy	(8aa\L	(8ccc\L
.	.	.	.	8g/)	.	8bn\)	.	.	.	.	8gg\)	8bbn\
4F\	.	.	.	(8a/	.	(8cc\	.	.	.	.	(8aa\	8ccc\
.	.	.	.	8b-/J)	.	8dd\J)	.	.	.	.	8bb-\J)	8ddd\J)
=6	=6	=6	=6	=6	=6	=6	=6	=6	=6	=6	=6	=6
4FF/	.	2r	.	(8a/L	.	(8cc\L	.	2r	2r	2ryy	(8aa\L	(8ccc\L
.	.	.	.	8g/)	.	8bn\)	.	.	.	.	8gg\)	8bbn\)
4F\	.	.	.	(8a/	.	(8cc\	.	.	.	.	(8aa\	(8ccc\
.	.	.	.	8f/J)	.	8a\J)	.	.	.	.	8ff\J)	8aa\J)
=7	=7	=7	=7	=7	=7	=7	=7	=7	=7	=7	=7	=7
4FF/	.	2r	.	8A'/L	.	8f/L	.	2r	2r	2ryy	8a/L	8ff\L
.	.	.	.	8A'/J	.	8f/J	.	.	.	.	8a/J	8ff\J
4F\	.	.	.	(16B-/LL	.	(16g/LL	.	.	.	.	(16b-/LL	(16gg\LL
!LO:LB:g=original	!	!	!	!	!	!	!	!	!	!	!	!
.	.	.	.	16A/)	.	16f/)	.	.	.	.	16a/	16ff\
.	.	.	.	(16B-/	.	(16g/	.	.	.	.	16b-/	16gg\
.	.	.	.	16c/JJ)	.	16a/JJ)	.	.	.	.	16cc/JJ)	16aa\JJ)
!	!	!	!	!LO:LB:g=original	!	!LO:LB:g=original	!	!	!	!	!LO:LB:g=original	!
=8	=8	=8	=8	=8	=8	=8	=8	=8	=8	=8	=8	=8
4FF/	.	2r	.	8A'/L	.	8f/L	.	2r	2r	2ryy	8a\L	8ff'\L
.	.	.	.	8A'/	.	8c/	.	.	.	.	8a\	8cc'\
4F\	.	.	.	8A'/	.	8f/	.	.	.	.	8a\	8ff'\
.	.	.	.	8c'/J	.	8a/J	.	.	.	.	8cc\J	8aa'\J
=9	=9	=9	=9	=9	=9	=9	=9	=9	=9	=9	=9	=9
4FF/	.	2r	.	8A/L	.	8f/L	.	2r	2r	2ryy	8a\L	8ff\L
.	.	.	.	8A/J	.	8f/J	.	.	.	.	8a\J	8ff\J
4F\	.	.	.	(16B-/LL	.	(16g/LL	.	.	.	.	(16b-\LL	(16gg\LL
.	.	.	.	16A/)	.	16f/)	.	.	.	.	16a\	16ff\)
.	.	.	.	(16B-/	.	(16g/	.	.	.	.	16b-\	(16gg\
.	.	.	.	16c/JJ)	.	16a/JJ)	.	.	.	.	16cc\JJ)	16aa\JJ)
!	!	!	!	!	!	!	!	!	!	!	!	!LO:LB:g=original
=10	=10	=10	=10	=10	=10	=10	=10	=10	=10	=10	=10	=10
8FF/L	.	2r	.	4A/	.	4f/	.	8r	8r	2ryy	4a\	4ff\
!	!	!	!	!	!	!	!	!	!LO:TX:t=P:problem=all\right&colon; global	!	!	!
*	*	*	*	*	*	*	*	*	*2\right	*	*	*
8F\J	.	.	.	.	.	.	.	8A/	8f\	.	.	.
4FF/	.	.	.	4r	.	4r	.	4A/	4f\	.	4r	4r
=11	=11	=11	=11	=11	=11	=11	=11	=11	=11	=11	=11	=11
!	!LO:DY:b:t=for	!	!	!LO:TX:t=P:problem=all\right&colon; global	!	!	!	!	!	!	!LO:TX:t=P:problem=takty nr 11-20 zapisane repetycją	!LO:TX:t=P:problem=takty nr 11-20 zapisane repetycją
*	*	*2\right	*	*	*	*	*	*	*	*	*	*
!	!	!	!LO:DY:b:t=for	!	!LO:DY:b:t=for	!	!LO:DY:b:t=for	!	!	!	!	!
4FF/	f	4F/	f	4a\	f	4ff'\	f	2F/	2f\	2ryy	4a'/yy	4ff\yy
4F\	.	4f\	.	4ff\	.	4aa'\	.	.	.	.	[4ff'\yy	[4aa\yy
=12	=12	=12	=12	=12	=12	=12	=12	=12	=12	=12	=12	=12
4FF/	.	4F/	.	(4.aa\	.	(4.ccc\	.	2F/	2f\	2ryy	(4.aa\]	4.ccc\]
4F\	.	4f\	.	.	.	.	.	.	.	.	.	.
.	.	.	.	8gg\)	.	8bbn\)	.	.	.	.	[8gg\)yy	[8bbn\yy
=13	=13	=13	=13	=13	=13	=13	=13	=13	=13	=13	=13	=13
4FF/	.	4F/	.	(8aa\L	.	(8ccc\L	.	2F/	2f\	2ryy	(8aa\L]	(8ccc\L]
.	.	.	.	8gg\)	.	8bbn\)	.	.	.	.	8gg\)yy	8bbn\)yy
4F\	.	4f\	.	(8aa\	.	(8ccc\	.	.	.	.	(8aa\yy	(8ccc\yy
.	.	.	.	8bb-\J)	.	8ddd\J)	.	.	.	.	[8bb-\J)yy	[8ddd\J)yy
=14	=14	=14	=14	=14	=14	=14	=14	=14	=14	=14	=14	=14
4FF/	.	4F/	.	(4.aa\	.	(4.ccc\	.	2F/	2f\	2ryy	(4.aa\]	(4.ccc\]
4F\	.	4f\	.	.	.	.	.	.	.	.	.	.
.	.	.	.	8ff\)	.	8aa\)	.	.	.	.	[8ff\)yy	[8aa\)yy
=15	=15	=15	=15	=15	=15	=15	=15	=15	=15	=15	=15	=15
4FF/	.	4F/	.	(8aa\L	.	(8ccc\L	.	2F/	2f\	2ryy	(8aa\L]	(8ccc\L]
!	!	!	!	!	!	!	!	!LO:LB:g=original	!	!	!	!
.	.	.	.	8gg\)	.	8bbn\)	.	.	.	.	8gg\)yy	8bbn\yy
4F\	.	4f\	.	(8aa\	.	(8ccc\	.	.	.	.	(8aa\yy	8ccc\yy
.	.	.	.	8bb-\J)	.	8ddd\J)	.	.	.	.	[8bb-\J)yy	[8ddd\J)yy
=16	=16	=16	=16	=16	=16	=16	=16	=16	=16	=16	=16	=16
4FF/	.	4F/	.	(8aa\L	.	(8ccc\L	.	2F/	2f\	2ryy	(8aa\L]	(8ccc\L]
.	.	.	.	8gg\)	.	8bbn\)	.	.	.	.	8gg\)yy	8bbn\)yy
4F\	.	4f\	.	(8aa\	.	(8ccc\	.	.	.	.	(8aa\yy	(8ccc\yy
!	!	!LO:LB:g=original	!	!	!	!	!	!	!	!	!	!
.	.	.	.	8ff\J)	.	8aa\J)	.	.	.	.	[8ff\J)yy	[8aa\J)yy
!	!	!	!	!	!	!LO:LB:g=original	!	!	!	!	!	!
=17	=17	=17	=17	=17	=17	=17	=17	=17	=17	=17	=17	=17
4FF/	.	4F/	.	8a/L	.	8ff\L	.	2F/	2f\	2ryy	8a/L]	8ff\L]
.	.	.	.	8a/J	.	8ff\J	.	.	.	.	8a/Jyy	8ff\Jyy
4F\	.	4f\	.	(16b-/LL	.	(16gg\LL	.	.	.	.	(16b-/LLyy	(16gg\LLyy
.	.	.	.	16a/)	.	16ff\	.	.	.	.	16a/yy	16ff\yy
.	.	.	.	(16b-/	.	16gg\	.	.	.	.	16b-/yy	16gg\yy
.	.	.	.	16cc/JJ)	.	16aa\JJ)	.	.	.	.	[16cc/JJ)yy	[16aa\JJ)yy
!	!	!	!	!LO:LB:g=original	!	!	!	!	!	!	!	!
=18	=18	=18	=18	=18	=18	=18	=18	=18	=18	=18	=18	=18
4FF/	.	4F/	.	8a'/L	.	8ff'\L	.	2F/	2f\	2ryy	8a\L]	8ff'\L]
.	.	.	.	8a'/	.	8cc'\	.	.	.	.	8a\yy	8cc'\yy
4F\	.	4f\	.	8a'/	.	8ff'\	.	.	.	.	8a\yy	8ff'\yy
!LO:LB:g=original	!	!	!	!	!	!	!	!	!	!	!	!
.	.	.	.	8cc'/J	.	8aa'\J	.	.	.	.	[8cc\Jyy	[8aa'\Jyy
=19	=19	=19	=19	=19	=19	=19	=19	=19	=19	=19	=19	=19
4FF/	.	4F/	.	8a'/L	.	8ff\L	.	2F/	2f\	2ryy	8a\L]	8ff\L]
.	.	.	.	8a'/J	.	8ff\J	.	.	.	.	8a\Jyy	8ff\Jyy
4F\	.	4f\	.	(16b-\LL	.	(16gg\LL	.	.	.	.	(16b-\LLyy	(16gg\LLyy
.	.	.	.	16a\)	.	16ff\	.	.	.	.	16a\yy	16ff\)yy
.	.	.	.	(16b-\	.	16gg\	.	.	.	.	16b-\yy	(16gg\yy
.	.	.	.	16cc\JJ)	.	16aa\JJ)	.	.	.	.	[16cc\JJ)yy	[16aa\JJ)yy
=20	=20	=20	=20	=20	=20	=20	=20	=20	=20	=20	=20	=20
8FF/L	.	8F/L	.	4a\	.	4ff\	.	8r	8r	2ryy	4a\]	4ff\]
8F\J	.	8f\J	.	.	.	.	.	8A/	8f\	.	.	.
!	!	!	!	!	!	!	!	!	!LO:TX:b:t=finis	!	!	!
4FF/	.	4F/	.	4r	.	4r	.	4A;/	4f;\	.	4ryy	4ryy
!	!	!	!	!	!	!	!	!LO:LB:g=original	!LO:LB:g=original	!	!	!
=21!|:	=21!|:	=21!|:	=21!|:	=21!|:	=21!|:	=21!|:	=21!|:	=21!|:	=21!|:	=21!|:	=21!|:	=21!|:
!	!LO:DY:b:t=for	!	!LO:LB:g=original	!	!	!	!	!	!	!	!	!
!	!	!	!	!	!LO:DY:b:t=for	!	!LO:DY:b:t=for	!	!	!	!	!
8F'\L	f	8F'/L	f	8f'/L	f	8f'/L	f	8F'/L	8f\L	2ryy	8f'/L	8f'/L
8A'\	.	8A'/	.	8a'/	.	8a'/	.	8A'/	8a\	.	8a'/	8a'/
8c'\	.	8c'/	.	8cc'/	.	8cc'/	.	8c'/	8cc\	.	8cc'/	8cc'/
8A'\J	.	8A'/J	.	8a'/J	.	8a'/J	.	8A'/J	8a\J	.	8a'/J	8a'/J
=22	=22	=22	=22	=22	=22	=22	=22	=22	=22	=22	=22	=22
*tremolo	*	*	*	*	*	*	*	*	*	*	*	*
*	*	*tremolo	*	*	*	*	*	*	*	*	*	*
*	*	*	*	*tremolo	*	*	*	*	*	*	*	*
*	*	*	*	*	*	*	*	*tremolo	*	*	*	*
*	*	*	*	*	*	*	*	*	*tremolo	*	*	*
*	*	*	*	*	*	*	*	*	*	*	*tremolo	*
8F\L	.	8F/L	.	8f/L	.	8f/L	.	8F/L	8f\L	2ryy	8f/L	8f/L
8F\	.	8F/	.	8f/	.	8f/	.	8F/	8f\	.	8f/	8f/
8F\	.	8F/	.	8f/	.	8f/	.	8F/	8f\	.	8f/	8f/
8F\J	.	8F/J	.	8f/J	.	8f/J	.	8F/J	8f\J	.	8f/J	8f/J
=23	=23	=23	=23	=23	=23	=23	=23	=23	=23	=23	=23	=23
8G'\L	.	8G'/L	.	8g'/L	.	8g'/L	.	4C/	8g'\L	2ryy	8g'/L	8g'/L
8F'\	.	8F'/	.	8f'/	.	8f'/	.	.	8f'\	.	8f'/	8f'/
8G'\	.	8G'/	.	8g'/	.	8g'/	.	4C/	8g'\	.	8g'/	8g'/
8A'\J	.	8A'/J	.	8a'/J	.	8a'/J	.	.	8a'\J	.	8a'/J	8a'/J
=24	=24	=24	=24	=24	=24	=24	=24	=24	=24	=24	=24	=24
(16F\LL	.	(16F/LL	.	(16f/LL	.	(16f/LL	.	8F/	8f\	2ryy	(16f/LL	(16f/LL
16E\)	.	16E/)	.	16e/	.	16e/	.	.	.	.	16e/	16e/
(16F\	.	(16F/	.	16f/	.	16f/	.	8r	8r	.	16f/	16f/
16G\JJ)	.	16G/JJ)	.	16g/JJ)	.	16g/JJ)	.	.	.	.	16g/JJ)	16g/JJ)
!LO:TX:a:t=|	!	!	!	!	!	!	!	!	!	!	!	!
8F\L	.	8F'/L	.	8f'/L	.	8f'/L	.	8F/L	8f|/L	.	8f'/L	8f/L
!LO:TX:a:t=|	!	!	!	!	!	!	!	!	!	!	!	!
8C\J	.	8C'/J	.	8c'/J	.	8c'/J	.	8C/J	8c|/J	.	8c'/J	8c/J
!	!	!	!	!	!	!LO:LB:g=original	!	!	!	!	!	!
=25	=25	=25	=25	=25	=25	=25	=25	=25	=25	=25	=25	=25
!	!	!	!	!	!	!LO:TX:b:t=|	!	!	!	!	!	!
8F'\L	.	8F'/L	.	8f/L	.	8f/L	.	8F'/L	8f'\L	2ryy	8f'/L	8f'/L
!	!	!	!	!	!	!LO:TX:b:t=|	!	!	!	!	!	!
8A'\	.	8A'/	.	8a/	.	8a/	.	8A'/	8a'\	.	8a'/	8a'/
!	!	!	!	!	!	!LO:TX:b:t=|	!	!	!	!	!	!
8c'\	.	8c'/	.	8cc/	.	8cc/	.	8c'/	8cc'\	.	8cc'/	8cc'/
!	!	!	!	!	!	!LO:TX:b:t=|	!	!	!	!	!	!
8A'\J	.	8A'/J	.	8a/J	.	8a/J	.	8A'/J	8a'\J	.	8a'/J	8a'/J
=26	=26	=26	=26	=26	=26	=26	=26	=26	=26	=26	=26	=26
*	*	*	*	*	*	*tremolo	*	*	*	*	*	*
*	*	*	*	*	*	*	*	*	*	*	*	*tremolo
8F\L	.	8F/L	.	8f/L	.	8f/L	.	8F/L	8f\L	2ryy	8f/L	8f/L
8F\	.	8F/	.	8f/	.	8f/	.	8F/	8f\	.	8f/	8f/
8F\	.	8F/	.	8f/	.	8f/	.	8F/	8f\	.	8f/	8f/
8F\J	.	8F/J	.	8f/J	.	8f/J	.	8F/J	8f\J	.	8f/J	8f/J
!	!	!	!	!LO:LB:g=original	!	!	!	!	!	!	!	!
!LO:LB:g=original	!	!LO:LB:g=original	!	!	!	!	!	!	!	!	!	!
=27	=27	=27	=27	=27	=27	=27	=27	=27	=27	=27	=27	=27
8G'\L	.	8G'/L	.	8g'/L	.	8g'/L	.	4C/	8g'\L	2ryy	8g'/L	8g'/L
8F'\	.	8F'/	.	8f'/	.	8f'/	.	.	8f'\	.	8f'/	8f'/
8G'\	.	8G'/	.	8g'/	.	8g'/	.	4C/	8g'\	.	8g'/	8g'/
8A'\J	.	8A'/J	.	8a'/J	.	8a'/J	.	.	8a'\J	.	8a'/J	8a'/J
=28	=28	=28	=28	=28	=28	=28	=28	=28	=28	=28	=28	=28
*Xtremolo	*	*Xtremolo	*	*	*	*	*	*	*	*	*	*
8F\L	.	8F'/L	.	4f/	.	4f/	.	8F/L	8f\L	2ryy	4f/	4f/
8F\J	.	8F'/J	.	.	.	.	.	8A/J	8f\J	.	.	.
4FF/	.	4F'/	.	4r	.	4r	.	4A/	4f\	.	4r	4r
!	!	!	!	!	!	!	!	!	!	!	!LO:LB:g=original	!
*tremolo	*	*tremolo	*	*	*	*	*	*	*	*	*	*
=29	=29	=29	=29	=29	=29	=29	=29	=29	=29	=29	=29	=29
!	!LO:DY:b:t=pia	!	!	!	!LO:DY:b:t=pia	!	!LO:DY:b:t=pia	!	!	!	!	!LO:TX:t=P:problem=2\right&colon; global
*	*	*	*	*	*	*Xtremolo	*	*	*	*	*Xtremolo	*
4C/	p	4c\	.	8e/L	p	8g/L	p	2r	2r	2ryy	8ee\L	8gg\L
.	.	.	.	8e/	.	8g/	.	.	.	.	8ee\	8gg\
4C/	.	4c\	.	8e/	.	8g/	.	.	.	.	8ee\	8gg\
.	.	.	.	8e/J	.	8g/J	.	.	.	.	8ee\J	8gg\J
=30	=30	=30	=30	=30	=30	=30	=30	=30	=30	=30	=30	=30
4C/	.	4c\	.	(16e/LL	.	(16g/LL	.	2r	2r	2ryy	(16ee\LL	(16gg\LL
.	.	.	.	16f/)	.	16a/)	.	.	.	.	16ff\	16aa\
.	.	.	.	(16g/	.	(16bn/	.	.	.	.	16gg\	16bbn\
.	.	.	.	16a/JJ)	.	16cc/JJ)	.	.	.	.	16aa\JJ)	16ccc\JJ)
4C/	.	4c\	.	4e/	.	4g/	.	.	.	.	4ee\	4gg\
=31	=31	=31	=31	=31	=31	=31	=31	=31	=31	=31	=31	=31
4G\	.	4g\	.	8e'/L	.	8g'/L	.	2r	2r	2ryy	8ee'\L	8gg'\L
!	!	!	!	!	!	!	!	!LO:LB:g=original	!LO:LB:g=original	!	!	!
.	.	.	.	8c'/J	.	8e'/J	.	.	.	.	8cc'\J	8ee'\J
4GG/	.	4G/	.	(16e/LL	.	16g/LL	.	.	.	.	(16ee\LL	(16gg\LL
.	.	.	.	16d/)	.	16f/	.	.	.	.	16dd\	16ff\
.	.	.	.	(16c/	.	16e/	.	.	.	.	16cc\	16ee\
.	.	.	.	16Bn/JJ)	.	16d/JJ	.	.	.	.	16bn\JJ)	16dd\JJ)
!	!	!	!	!	!	!	!	!	!	!	!	!LO:LB:g=original
=32	=32	=32	=32	=32	=32	=32	=32	=32	=32	=32	=32	=32
8C/L	.	8c\L	.	4c/	.	4c/	.	8r	8r	2ryy	4cc\	4cc\
8c\J	.	8C/J	.	.	.	.	.	8c/	8g\	.	.	.
4C/	.	4C/	.	4r	.	4r	.	4c/	4g\	.	4r	4r
=33:|!|:	=33:|!|:	=33:|!|:	=33:|!|:	=33:|!|:	=33:|!|:	=33:|!|:	=33:|!|:	=33:|!|:	=33:|!|:	=33:|!|:	=33:|!|:	=33:|!|:
!	!	!	!LO:DY:b:t=pia	!	!LO:DY:b:t=pia	!LO:TX:a:t=|	!LO:DY:b:t=pia	!	!	!	!	!
4r	.	4d\	p	8a/L	p	8cc\L	p	2r	2r	2ryy	8aa'\L	8ccc'\L
.	.	.	.	8a/	.	(8cc\	.	.	.	.	8aa'\	8ccc'\
!	!LO:DY:b:t=pia	!	!	!	!	!	!	!	!	!	!	!
4F#X\	p	4d\	.	8g/	.	8b-\	.	.	.	.	(8gg\	(8bb-X\
.	.	.	.	8f#X/J	.	8a\J)	.	.	.	.	8ff#X\J)	8aa\J)
!	!	!	!	!	!	!LO:LB:g=original	!	!	!	!	!	!
=34	=34	=34	=34	=34	=34	=34	=34	=34	=34	=34	=34	=34
4G\	.	4B-/	.	(16B-/LL	.	(16g/LL	.	2r	2r	2ryy	(16b-\LL	(16gg\LL
.	.	.	.	16A/)	.	16f#X/)	.	.	.	.	16a\)	16ff#X\)
.	.	.	.	(16B-/	.	(16g/	.	.	.	.	(16b-\	(16gg\
.	.	.	.	16c/JJ)	.	16a/JJ)	.	.	.	.	16cc\JJ)	16aa\JJ)
4GG/	.	4B-/	.	4B-/	.	4g/	.	.	.	.	4b-\	4gg\
!	!	!	!	!LO:LB:g=original	!	!	!	!	!	!	!	!
=35	=35	=35	=35	=35	=35	=35	=35	=35	=35	=35	=35	=35
4C\	.	4c/	.	(8g/L	.	8b-'/L	.	2r	2r	2ryy	8gg'\L	8bb-'\L
.	.	.	.	8g/)	.	8b-'/	.	.	.	.	8gg'\	8bb-'\J
4E\	.	4c/	.	(8fn/	.	(8a/	.	.	.	.	(8ffn\	(8aa\L
!LO:LB:g=original	!	!	!	!	!	!	!	!	!	!	!	!
.	.	.	.	8e/J)	.	8g/J)	.	.	.	.	8ee\J)	8gg\J)
=36	=36	=36	=36	=36	=36	=36	=36	=36	=36	=36	=36	=36
4Fn\	.	4A/	.	(16A/LL	.	(16fn/LL	.	2r	2r	2ryy	(16a/LL	(16ff\LL
.	.	.	.	16G/)	.	16e/)	.	.	.	.	16g/	16ee\)
.	.	.	.	(16A/	.	(16f/	.	.	.	.	16a/	(16ff\
.	.	.	.	16B-/JJ)	.	16g/JJ)	.	.	.	.	16b-/JJ)	16gg\JJ)
4FF/	.	4A/	.	4A/	.	4f/	.	.	.	.	4a/	4ff\
!	!	!LO:LB:g=original	!	!	!	!	!	!	!	!	!	!
=37	=37	=37	=37	=37	=37	=37	=37	=37	=37	=37	=37	=37
!	!LO:DY:b:t=for	!	!	!	!LO:DY:b:t=for	!	!LO:DY:b:t=for	!	!	!	!	!
8F'\L	f	8F'/L	.	8f'/L	f	8f/L	f	8F'/L	8f'\L	2ryy	8f'/L	8f'/L
8A'\	.	8A'/	.	8a'/	.	8a/	.	8A'/	8a'\	.	8a'/	8a'/
8c'\	.	8c'/	.	8cc'/	.	8cc/	.	8c'/	8cc'\	.	8cc'/	8cc'/
8A'\J	.	8A'/J	.	8a'/J	.	8a/J	.	8A'/J	8a'\J	.	8a'/J	8a'/J
!	!	!	!	!	!	!	!	!	!	!	!LO:LB:g=original	!
=38	=38	=38	=38	=38	=38	=38	=38	=38	=38	=38	=38	=38
*	*	*	*	*	*	*tremolo	*	*	*	*	*tremolo	*
8F\L	.	8F/L	.	8f/L	.	8f/L	.	8F/L	8f\L	2ryy	8f/L	8f/L
8F\	.	8F/	.	8f/	.	8f/	.	8F/	8f\	.	8f/	8f/
8F\	.	8F/	.	8f/	.	8f/	.	8F/	8f\	.	8f/	8f/
8F\J	.	8F/J	.	8f/J	.	8f/J	.	8F/J	8f\J	.	8f/J	8f/J
=39	=39	=39	=39	=39	=39	=39	=39	=39	=39	=39	=39	=39
8G'\L	.	8G'/L	.	8g'/L	.	8g/L	.	4C/	8g'\L	2ryy	8g'/L	8g'/L
8F'\	.	8F'/	.	8f'/	.	8f/	.	.	8f'\	.	8f'/	8f'/
8G'\	.	8G'/	.	8g'/	.	8g/	.	4C/	8g'\	.	8g'/	8g'/
8A'\J	.	8A'/J	.	8a'/J	.	8a/J	.	.	8a'\J	.	8a'/J	8a'/J
=40	=40	=40	=40	=40	=40	=40	=40	=40	=40	=40	=40	=40
(16F\LL	.	(16F/LL	.	(16f/LL	.	(16f/LL	.	8F/	8f\	2ryy	(16f/LL	(16f/LL
16E\	.	16E/)	.	16e/	.	16e/)	.	.	.	.	16e/)	16e/)
16F\	.	(16F/	.	16f/	.	(16f/	.	8r	8r	.	(16f/	(16f/
16G\JJ)	.	16G/JJ)	.	16g/JJ)	.	16g/JJ)	.	.	.	.	16g/JJ)	16g/JJ)
8F'\L	.	8F/L	.	8f'/L	.	8f'/L	.	8F/L	8f'/L	.	8f'/L	8f/L
8C'\J	.	8C/J	.	8c'/J	.	8c'/J	.	8C/J	8c'/J	.	8c'/J	8c/J
!	!	!	!	!	!	!LO:LB:g=original	!	!	!	!	!	!
=41	=41	=41	=41	=41	=41	=41	=41	=41	=41	=41	=41	=41
8F'\L	.	8F'/L	.	8f'/L	.	8f/L	.	8F'/L	8f'\L	2ryy	8f'/L	8f'/L
8A'\	.	8A'/	.	8a'/	.	8a/	.	8A'/	8a'\	.	8a'/	8a'/
8c'\	.	8c'/	.	8cc'/	.	8cc/	.	8c'/	8cc'\	.	8cc'/	8cc'/
8A'\J	.	8A'/J	.	8a'/J	.	8a/J	.	8A'/J	8a'\J	.	8a'/J	8a'/J
=42	=42	=42	=42	=42	=42	=42	=42	=42	=42	=42	=42	=42
8F\L	.	8F/L	.	8f/L	.	8f/L	.	8F/L	8f\L	2ryy	8f/L	8f/L
8F\	.	8F/	.	8f/	.	8f/	.	8F/	8f\	.	8f/	8f/
8F\	.	8F/	.	8f/	.	8f/	.	8F/	8f\	.	8f/	8f/
8F\J	.	8F/J	.	8f/J	.	8f/J	.	8F/J	8f\J	.	8f/J	8f/J
!	!	!	!	!	!	!	!	!LO:LB:g=original	!	!	!	!
*	*	*	*	*	*	*	*	*	*	*	*	*Xtremolo
*	*	*	*	*	*	*	*	*	*	*	*Xtremolo	*
*	*	*	*	*	*	*	*	*	*Xtremolo	*	*	*
*	*	*	*	*	*	*	*	*Xtremolo	*	*	*	*
*	*	*Xtremolo	*	*	*	*	*	*	*	*	*	*
*Xtremolo	*	*	*	*	*	*	*	*	*	*	*	*
=43	=43	=43	=43	=43	=43	=43	=43	=43	=43	=43	=43	=43
8G'\L	.	8G'/L	.	8g'/L	.	8g/L	.	4C/	8g'\L	2ryy	8g'/L	8g/L
8F'\	.	8F'/	.	8f'/	.	8f/	.	.	8f'\	.	8f'/	8f/
8G'\	.	8G'/	.	8g'/	.	8g/	.	4C/	8g'\	.	8g/	8g/
8A'\J	.	8A'/J	.	8a'/J	.	8a/J	.	.	8a'\J	.	8a'/J	8a/J
!	!	!	!	!	!	!	!	!	!LO:LB:g=original	!	!	!LO:LB:g=original
!LO:LB:g=original	!	!	!	!LO:LB:g=original	!	!	!	!	!	!	!	!
=44	=44	=44	=44	=44	=44	=44	=44	=44	=44	=44	=44	=44
8F'\L	.	8F/L	.	4f/	.	4f/	.	8r	8r	2ryy	4f/	4f/
8F'\J	.	8F/J	.	.	.	.	.	8A/	8f\	.	.	.
4FF/	.	4F/	.	4r	.	4r	.	4A/	4f\	.	4r	4r
=45:|!	=45:|!	=45:|!	=45:|!	=45:|!	=45:|!	=45:|!	=45:|!	=45:|!	=45:|!	=45:|!	=45:|!	=45:|!
!	!	!	!	!LO:TX:b:t=|	!	!	!	!	!	!	!	!
!	!LO:DY:b:t=pia	!	!	!LO:TX:a:t=|	!	!	!	!LO:TX:a:t=Dal Segno.	!LO:TX:a:t=dal Segno	!	!	!
!	!	!	!	!	!LO:DY:b:t=pia	!	!LO:DY:b:t=pia	!	!	!	!	!
4FF/	p	2r	.	4A/	p	4f/	p	2ryy	2ryy	2ryy	4a/	4ff'\
!	!	!	!	!LO:TX:b:t=|	!	!	!	!	!	!	!	!
!	!	!	!	!LO:TX:a:t=|	!	!	!	!	!	!	!	!
4F\	.	.	.	4f/	.	4a/	.	.	.	.	4ff\	4aa'\
=46	=46	=46	=46	=46	=46	=46	=46	=46	=46	=46	=46	=46
4FF/	.	2r	.	(4.a/	.	(4.cc\	.	2ryy	2ryy	2ryy	(4.aa\	(4.ccc\
4F\	.	.	.	.	.	.	.	.	.	.	.	.
.	.	.	.	8g/)	.	8bn\)	.	.	.	.	8gg\)	8bbn\)
=47	=47	=47	=47	=47	=47	=47	=47	=47	=47	=47	=47	=47
4FF/	.	2r	.	(8a/L	.	(8cc\L	.	2ryy	2ryy	2ryy	(8aa\L	(8ccc\L
.	.	.	.	8g/)	.	8bn\)	.	.	.	.	8gg\)	8bbn\)
4F\	.	.	.	(8a/	.	(8cc\	.	.	.	.	(8aa\	(8ccc\
.	.	.	.	8b-/J)	.	8dd\J)	.	.	.	.	8bb-\J)	8ddd\J)
=48	=48	=48	=48	=48	=48	=48	=48	=48	=48	=48	=48	=48
4FF/	.	2r	.	(4.a/	.	(4.cc\	.	2ryy	2ryy	2ryy	(4.aa\	(4.ccc\
4F\	.	.	.	.	.	.	.	.	.	.	.	.
.	.	.	.	8f/)	.	8a\)	.	.	.	.	8ff\)	8aa\)
=49	=49	=49	=49	=49	=49	=49	=49	=49	=49	=49	=49	=49
4FF/	.	2r	.	(8a/L	.	(8cc\L	.	2ryy	2ryy	2ryy	(8aa\L	(8ccc\L
.	.	.	.	8g/)	.	8bn\)	.	.	.	.	8gg\)	8bbn\)
4F\	.	.	.	(8a/	.	(8cc\	.	.	.	.	(8aa\	(8ccc\
.	.	.	.	8b-/J)	.	8dd\J)	.	.	.	.	8bb-\J)	8ddd\J)
!	!	!	!	!	!	!LO:LB:g=original	!	!	!	!	!LO:LB:g=original	!
=50	=50	=50	=50	=50	=50	=50	=50	=50	=50	=50	=50	=50
4FF/	.	2r	.	(8a/L	.	(8cc\L	.	2ryy	2ryy	2ryy	(8aa\L	(8ccc\L
.	.	.	.	8g/)	.	8bn\)	.	.	.	.	8gg\)	8bbn\)
4F\	.	.	.	(8a/	.	(8cc\	.	.	.	.	(8aa\	8ccc\
.	.	.	.	8f/J)	.	8a\J)	.	.	.	.	8ff\J)	8aa\J
=51	=51	=51	=51	=51	=51	=51	=51	=51	=51	=51	=51	=51
*	*	*	*	*Xtremolo	*	*Xtremolo	*	*	*	*	*	*
4FF/	.	2r	.	8A'/L	.	8f/L	.	2ryy	2ryy	2ryy	8a/L	8ff\L
.	.	.	.	8A'/J	.	8f/J	.	.	.	.	8a/J	8ff\J
4F\	.	.	.	(16B-/LL	.	(16g/LL	.	.	.	.	(16b-\LL	(16gg\LL
.	.	.	.	16A/)	.	16f/)	.	.	.	.	16a\)	16ff\)
.	.	.	.	(16B-/	.	(16g/	.	.	.	.	(16b-\	(16gg\
.	.	.	.	16c/JJ)	.	16a/JJ)	.	.	.	.	16cc\JJ)	16aa\JJ)
=52	=52	=52	=52	=52	=52	=52	=52	=52	=52	=52	=52	=52
4FF/	.	2r	.	8A'/L	.	8f'/L	.	2ryy	2ryy	2ryy	8a'\L	8ff'\L
.	.	.	.	8A'/	.	8c'/	.	.	.	.	8a'\	8cc'\
4F\	.	.	.	8A'/	.	8f'/	.	.	.	.	8a'\	8ff'\
.	.	.	.	8c'/J	.	8a'/J	.	.	.	.	8cc'\J	8aa'\J
!	!	!	!	!LO:LB:g=original	!	!	!	!	!	!	!	!
=53	=53	=53	=53	=53	=53	=53	=53	=53	=53	=53	=53	=53
4FF/	.	2r	.	8A/L	.	8f/L	.	2ryy	2ryy	2ryy	8a'\L	8ff\L
.	.	.	.	8A/J	.	8f/J	.	.	.	.	8a'\J	8ff\J
4F\	.	.	.	(16B-/LL	.	(16g/LL	.	.	.	.	(16b-\LL	(16gg\LL
!LO:LB:g=original	!	!	!	!	!	!	!	!	!	!	!	!
.	.	.	.	16A/)	.	16f/)	.	.	.	.	16a\)	16ff\)
.	.	.	.	(16B-/	.	(16g/	.	.	.	.	(16b-\	(16gg\
.	.	.	.	16c/JJ)	.	16a/JJ)	.	.	.	.	16cc\JJ)	16aa\JJ)
=54	=54	=54	=54	=54	=54	=54	=54	=54	=54	=54	=54	=54
8FF/L	.	2r	.	4A/	.	4f/	.	8ryy	8ryy	2ryy	4a\	4ff\
*	*	*	*	*tremolo	*	*	*	*	*	*	*	*
!	!	!LO:LB:g=original	!	!	!	!	!	!	!	!	!	!
8F\J	.	.	.	.	.	.	.	8A/yy	8f\yy	.	.	.
4FF/	.	.	.	4r	.	4r	.	[4A/yy	[4f\yy	.	4r	4r
=55	=55	=55	=55	=55	=55	=55	=55	=55	=55	=55	=55	=55
!	!LO:DY:b:t=for	!	!LO:DY:b:t=for	!	!LO:DY:b:t=for	!	!LO:DY:b:t=for	!	!	!	!LO:TX:t=P:problem=takty nr 55-64 zapisane repetycją	!LO:TX:t=P:problem=takty nr 55-64 zapisane repetycją
4FF/	f	4F/	f	4a/	f	4ff'\	f	[2F/]	[2f\]	2ryy	4a/yy	4ff'\yy
4F\	.	4f\	.	4ff\	.	4aa'\	.	.	.	.	[4ff\yy	[4aa'\yy
=56	=56	=56	=56	=56	=56	=56	=56	=56	=56	=56	=56	=56
4FF/	.	4F/	.	(4.aa\	.	(4.ccc\	.	[2F/]	[2f\]	2ryy	(4.aa\]	(4.ccc\]
4F\	.	4f\	.	.	.	.	.	.	.	.	.	.
.	.	.	.	8gg\)	.	8bbn\)	.	.	.	.	[8gg\)yy	[8bbn\)yy
=57	=57	=57	=57	=57	=57	=57	=57	=57	=57	=57	=57	=57
4FF/	.	4F/	.	(8aa\L	.	(8ccc\L	.	[2F/]	[2f\]	2ryy	(8aa\L]	(8ccc\L]
.	.	.	.	8gg\)	.	8bbn\)	.	.	.	.	8gg\)yy	8bbn\)yy
4F\	.	4f\	.	(8aa\	.	(8ccc\	.	.	.	.	(8aa\yy	(8ccc\yy
.	.	.	.	8bb-\J)	.	8ddd\J)	.	.	.	.	[8bb-\J)yy	[8ddd\J)yy
!	!	!	!	!	!	!LO:LB:g=original	!	!	!	!	!	!
=58	=58	=58	=58	=58	=58	=58	=58	=58	=58	=58	=58	=58
4FF/	.	4F/	.	(4.aa\	.	(4.ccc\	.	[2F/]	[2f\]	2ryy	(4.aa\]	(4.ccc\]
4F\	.	4f\	.	.	.	.	.	.	.	.	.	.
.	.	.	.	8ff\)	.	8aa\)	.	.	.	.	[8ff\)yy	[8aa\)yy
=59	=59	=59	=59	=59	=59	=59	=59	=59	=59	=59	=59	=59
4FF/	.	4F/	.	(8aa\L	.	(8ccc\L	.	[2F/]	[2f\]	2ryy	(8aa\L]	(8ccc\L]
.	.	.	.	8gg\)	.	8bbn\)	.	.	.	.	8gg\)yy	8bbn\)yy
4F\	.	4f\	.	(8aa\	.	(8ccc\	.	.	.	.	(8aa\yy	(8ccc\yy
.	.	.	.	8bb-\J)	.	8ddd\J)	.	.	.	.	[8bb-\J)yy	[8ddd\J)yy
=60	=60	=60	=60	=60	=60	=60	=60	=60	=60	=60	=60	=60
4FF/	.	4F/	.	(8aa\L	.	(8ccc\L	.	[2F/]	[2f\]	2ryy	(8aa\L]	(8ccc\L]
.	.	.	.	8gg\)	.	8bbn\)	.	.	.	.	8gg\)yy	8bbn\)yy
4F\	.	4f\	.	(8aa\	.	(8ccc\	.	.	.	.	(8aa\yy	8ccc\yy
.	.	.	.	8ff\J)	.	8aa\J)	.	.	.	.	[8ff\J)yy	[8aa\Jyy
=61	=61	=61	=61	=61	=61	=61	=61	=61	=61	=61	=61	=61
*	*	*	*	*Xtremolo	*	*	*	*	*	*	*	*
4FF/	.	4F/	.	8a/L	.	8ff\L	.	[2F/]	[2f\]	2ryy	8a/L]	8ff\L]
.	.	.	.	8a/J	.	8ff\J	.	.	.	.	8a/Jyy	8ff\Jyy
4F\	.	4f\	.	(16b-/LL	.	(16gg\LL	.	.	.	.	(16b-\LLyy	(16gg\LLyy
.	.	.	.	16a/)	.	16ff\)	.	.	.	.	16a\)yy	16ff\)yy
.	.	.	.	(16b-/	.	(16gg\	.	.	.	.	(16b-\yy	(16gg\yy
.	.	.	.	16cc/JJ)	.	16aa\JJ)	.	.	.	.	[16cc\JJ)yy	[16aa\JJ)yy
!	!	!	!	!LO:LB:g=original	!	!	!	!	!	!	!	!
=62	=62	=62	=62	=62	=62	=62	=62	=62	=62	=62	=62	=62
4FF/	.	4F/	.	8a'/L	.	8ff'\L	.	[2F/]	[2f\]	2ryy	8a'\L]	8ff'\L]
.	.	.	.	8a'/	.	8cc'\	.	.	.	.	8a'\yy	8cc'\yy
4F\	.	4f\	.	8a'/	.	8ff'\	.	.	.	.	8a'\yy	8ff'\yy
.	.	.	.	8cc'/J	.	8aa'\J	.	.	.	.	[8cc'\Jyy	[8aa'\Jyy
=63	=63	=63	=63	=63	=63	=63	=63	=63	=63	=63	=63	=63
4FF/	.	4F/	.	8a/L	.	8ff\L	.	2F/]	2f\]	2ryy	8a'\L]	8ff\L]
.	.	.	.	8a/J	.	8ff\J	.	.	.	.	8a'\Jyy	8ff\Jyy
4F\	.	4f\	.	(16b-/LL	.	(16gg\LL	.	.	.	.	(16b-\LLyy	(16gg\LLyy
.	.	.	.	16a/)	.	16ff\)	.	.	.	.	16a\)yy	16ff\)yy
.	.	.	.	(16b-/	.	(16gg\	.	.	.	.	(16b-\yy	(16gg\yy
.	.	.	.	16cc/JJ)	.	16aa\JJ)	.	.	.	.	[16cc\JJ)yy	[16aa\JJ)yy
!	!	!	!	!	!	!LO:LB:g=original	!	!	!	!	!	!
=64	=64	=64	=64	=64	=64	=64	=64	=64	=64	=64	=64	=64
8FF/L	.	8F/L	.	4a/	.	4ff\	.	8ryy	8ryy	2ryy	4a\]	4ff\]
8F\J	.	8f\J	.	.	.	.	.	8A/yy	8f\yy	.	.	.
4FF/	.	4F/	.	4r	.	4r	.	4A;/yy	4f;\yy	.	4ryy	4ryy
=65!|:	=65!|:	=65!|:	=65!|:	=65!|:	=65!|:	=65!|:	=65!|:	=65!|:	=65!|:	=65!|:	=65!|:	=65!|:
4D\	.	4d\	.	4f/	.	4dd\	.	2r	2r	2ryy	4f/	4dd\
!	!	!	!	!	!	!LO:TX:t=P:problem=niejednoznaczny zapis łuku	!	!	!	!LO:LB:g=original	!	!
4r	.	4r	.	4r	.	(16a/LL	.	.	.	.	4r	4r
!	!	!	!	!	!	!	!	!	!	!	!	!LO:LB:g=original
.	.	.	.	.	.	16g/	.	.	.	.	.	.
.	.	.	.	.	.	16f/	.	.	.	.	.	.
.	.	.	.	.	.	16e/JJ)	.	.	.	.	.	.
=66	=66	=66	=66	=66	=66	=66	=66	=66	=66	=66	=66	=66
4F'\	.	4f'\	.	2f/	.	4d/	.	2r	2r	2ryy	4f/	4dd\
4D'\	.	4d'\	.	.	.	4dd\	.	.	.	.	4dd\	4ff\
!	!	!LO:LB:g=original	!	!	!	!	!	!	!	!	!	!
=67	=67	=67	=67	=67	=67	=67	=67	=67	=67	=67	=67	=67
4A\	.	4a\	.	4e/	.	4cc#X\	.	2r	2r	2ryy	4cc#X\	4ee\
(16E\LL	.	(16e\LL	.	4g/	.	4ee\	.	.	.	.	4cc#\	4ee\
16D\	.	16d\	.	.	.	.	.	.	.	.	.	.
16C#X\	.	16c#X\	.	.	.	.	.	.	.	.	.	.
16BB-\JJ)	.	16B-\JJ)	.	.	.	.	.	.	.	.	.	.
=68	=68	=68	=68	=68	=68	=68	=68	=68	=68	=68	=68	=68
!	!	!	!	!	!	!	!	!	!	!	!LO:TX:t=P:problem=2\right&colon; global	!
!	!	!	!	!	!	!	!	!	!	!	!LO:TX:a:t=SIC&colon;s=2cc#	!
4AA/	.	4A/	.	4.c#X'/	.	4.a/	.	2r	2r	2ryy	2cc\	2ee\
4A\	.	4c#X/	.	.	.	.	.	.	.	.	.	.
.	.	.	.	8e'/	.	8g/	.	.	.	.	.	.
=69	=69	=69	=69	=69	=69	=69	=69	=69	=69	=69	=69	=69
4d\	.	4d\	.	8f'/L	.	8f'/L	.	2r	2r	2ryy	2r	2r
.	.	.	.	8e'/	.	8e'/	.	.	.	.	.	.
4D\	.	4d\	.	8f'/	.	8f'/	.	.	.	.	.	.
.	.	.	.	8d'/J	.	8d'/J	.	.	.	.	.	.
=70	=70	=70	=70	=70	=70	=70	=70	=70	=70	=70	=70	=70
4F\	.	4f\	.	8c#X'/L	.	8c#X'/L	.	2r	2r	2ryy	2r	2r
.	.	.	.	8d'/	.	8d'/	.	.	.	.	.	.
4D\	.	4d\	.	8c#'/	.	8c#'/	.	.	.	.	.	.
.	.	.	.	8d'/J	.	8d'/J	.	.	.	.	.	.
=71	=71	=71	=71	=71	=71	=71	=71	=71	=71	=71	=71	=71
4A\	.	4c#X/	.	4e'/	.	4e'/	.	2r	2r	2ryy	4cc#X\	4ee\
4AA/	.	4A/	.	4c#X'/	.	4c#X'/	.	.	.	.	4cc#\	4ee\
!	!	!	!	!LO:LB:g=original	!	!	!	!	!	!	!	!
=72	=72	=72	=72	=72	=72	=72	=72	=72	=72	=72	=72	=72
!	!	!	!	!	!	!	!	!	!	!	!LO:TX:a:t=SIC&colon;s=4cc#	!
8A\L	.	8A'/L	.	4A/	.	4A/	.	2r	2r	2ryy	4cc\	4ee\
8G\	.	8G'/	.	.	.	.	.	.	.	.	.	.
8F\	.	8F'/	.	4r	.	4r	.	.	.	.	4r	4r
!	!	!	!	!	!	!LO:LB:g=original	!	!	!	!	!LO:LB:g=original	!
8E\J	.	8E'/J	.	.	.	.	.	.	.	.	.	.
!LO:LB:g=original	!	!	!	!	!	!	!	!	!	!	!	!
=73	=73	=73	=73	=73	=73	=73	=73	=73	=73	=73	=73	=73
4D\	.	4D/	.	4d/	.	4d/	.	2r	2r	2ryy	4f/	4dd\
4r	.	4r	.	4r	.	(16a/LL	.	.	.	.	4r	4r
.	.	.	.	.	.	16g/	.	.	.	.	.	.
.	.	.	.	.	.	16f/	.	.	.	.	.	.
.	.	.	.	.	.	16e/JJ)	.	.	.	.	.	.
=74	=74	=74	=74	=74	=74	=74	=74	=74	=74	=74	=74	=74
!	!	!	!	!	!	!LO:TX:b:t=|	!	!	!	!	!	!
4F\	.	4f'\	.	2f/	.	4d/	.	2r	2r	2ryy	4f/	4dd\
!	!	!	!	!	!	!LO:TX:a:t=|	!	!	!	!	!	!
4D\	.	4d'\	.	.	.	4dd\	.	.	.	.	4dd\	4ff\
=75	=75	=75	=75	=75	=75	=75	=75	=75	=75	=75	=75	=75
4A\	.	4a\	.	4e'/	.	4cc#X'\	.	2r	2r	2ryy	4cc#X\	4ee\
(16E\LL	.	(16e\LL	.	4g'/	.	4ee'\	.	.	.	.	4cc#\	4ee\
16D\	.	16d\	.	.	.	.	.	.	.	.	.	.
16C#X\	.	16c#X\	.	.	.	.	.	.	.	.	.	.
16BB-\JJ)	.	16B-\JJ)	.	.	.	.	.	.	.	.	.	.
!	!	!LO:LB:g=original	!	!	!	!	!	!	!	!	!	!
=76	=76	=76	=76	=76	=76	=76	=76	=76	=76	=76	=76	=76
!	!	!	!	!	!	!	!	!	!	!	!LO:TX:a:t=SIC&colon;s=2cc#	!
4AA/	.	4A/	.	4.c#X'/	.	4.a'/	.	2r	2r	2ryy	2cc\	2ee\
4A\	.	4c#X/	.	.	.	.	.	.	.	.	.	.
.	.	.	.	8e'/	.	8g'/	.	.	.	.	.	.
=77	=77	=77	=77	=77	=77	=77	=77	=77	=77	=77	=77	=77
4d\	.	4d\	.	8f'/L	.	8f'/L	.	2r	2r	2ryy	2a/	2ff\
.	.	.	.	8e'/	.	8e'/	.	.	.	.	.	.
4D\	.	4d\	.	8f'/	.	8f'/	.	.	.	.	.	.
.	.	.	.	8d'/J	.	8d'/J	.	.	.	.	.	.
=78	=78	=78	=78	=78	=78	=78	=78	=78	=78	=78	=78	=78
4A\	.	4A/	.	8c#X'/L	.	8c#X'/L	.	2r	2r	2ryy	2g/	2ee\
.	.	.	.	8e'/	.	8e'/J	.	.	.	.	.	.
4AA/	.	4A/	.	8A'/	.	8A'/L	.	.	.	.	.	.
.	.	.	.	8c#'/J	.	8c#'/J	.	.	.	.	.	.
=79	=79	=79	=79	=79	=79	=79	=79	=79	=79	=79	=79	=79
4D\	.	4F/	.	4d/	.	4d/	.	2r	2r	2ryy	4f/	4dd\
4D\	.	4F/	.	4d/	.	4d/	.	.	.	.	4f/	4dd\
=80	=80	=80	=80	=80	=80	=80	=80	=80	=80	=80	=80	=80
8D\L	.	4F/	.	4d/	.	4d/	.	2r	2r	2ryy	4f/	4dd\
8d\J	.	.	.	.	.	.	.	.	.	.	.	.
4D\	.	4r	.	4r	.	4r	.	.	.	.	4r	4r
=81:|!|:	=81:|!|:	=81:|!|:	=81:|!|:	=81:|!|:	=81:|!|:	=81:|!|:	=81:|!|:	=81:|!|:	=81:|!|:	=81:|!|:	=81:|!|:	=81:|!|:
!	!	!	!	!	!	!	!	!LO:TX:t=P:problem=all\right&colon; global	!	!	!	!
8F\L	.	8F/L	.	2aa\	.	4ff'\	.	2f\	2a\	2ryy	2aa\	4ff'\
8A\	.	8A/	.	.	.	.	.	.	.	.	.	.
8c\	.	8c/	.	.	.	4ccc'\	.	.	.	.	.	4ccc'\
8A\J	.	8A/J	.	.	.	.	.	.	.	.	.	.
!LO:LB:g=original	!	!	!	!	!	!	!	!	!	!	!	!
=82	=82	=82	=82	=82	=82	=82	=82	=82	=82	=82	=82	=82
8A\L	.	8A/L	.	2ff\	.	4aa'\	.	2f\	2a\	2ryy	2ff\	4aa'\
!	!	!	!	!	!	!	!	!LO:LB:g=original	!	!	!	!
8G\	.	8G/	.	.	.	.	.	.	.	.	.	.
8A\	.	8A/	.	.	.	4ff'\	.	.	.	.	.	4ff'\
!	!	!	!	!	!	!LO:LB:g=original	!	!	!	!	!	!
8F\J	.	8F/J	.	.	.	.	.	.	.	.	.	.
=83	=83	=83	=83	=83	=83	=83	=83	=83	=83	=83	=83	=83
8d\L	.	8d/L	.	4gg'\	.	2ddd\	.	2g\	2b-\	2ryy	4gg'\	2ddd\
8c\	.	8c/	.	.	.	.	.	.	.	.	.	.
8B-\	.	8B-/	.	4bb-'\	.	.	.	.	.	.	4bb-'\	.
!	!	!	!	!LO:LB:g=original	!	!	!	!	!	!	!	!
8A\J	.	8A/J	.	.	.	.	.	.	.	.	.	.
=84	=84	=84	=84	=84	=84	=84	=84	=84	=84	=84	=84	=84
8G\L	.	8G/L	.	4gg'\	.	2bb-\	.	2g\	2b-\	2ryy	4gg'\	2bb-\
!	!	!	!	!	!	!	!	!	!LO:LB:g=original	!	!	!
8A\	.	8A/	.	.	.	.	.	.	.	.	.	.
8B-\	.	8B-/	.	4ee'\	.	.	.	.	.	.	4ee'\	.
8G\J	.	8G/J	.	.	.	.	.	.	.	.	.	.
!	!	!LO:LB:g=original	!	!	!	!	!	!	!	!	!	!
=85	=85	=85	=85	=85	=85	=85	=85	=85	=85	=85	=85	=85
8E\L	.	8E/L	.	2gg\	.	4r	.	2c/	2g\	2ryy	2gg\	4r
8G\	.	8G/	.	.	.	.	.	.	.	.	.	.
8B-\	.	8B-/	.	.	.	4bb-'\	.	.	.	.	.	4bb-'\
8A\J	.	8A/J	.	.	.	.	.	.	.	.	.	.
=86	=86	=86	=86	=86	=86	=86	=86	=86	=86	=86	=86	=86
8G\L	.	8G/L	.	2ee\	.	4gg'\	.	2c/	2g\	2ryy	2ee\	4gg'\
8F\	.	8F/	.	.	.	.	.	.	.	.	.	.
8G\	.	8G/	.	.	.	4ee'\	.	.	.	.	.	4ee'\
!	!	!	!	!	!	!	!	!	!	!	!	!LO:LB:g=original
8E\J	.	8E/J	.	.	.	.	.	.	.	.	.	.
=87	=87	=87	=87	=87	=87	=87	=87	=87	=87	=87	=87	=87
8c\L	.	8c/L	.	4ff'\	.	2ccc\	.	2f\	2a\	2ryy	4ff'\	2ccc\
8B-\	.	8B-/	.	.	.	.	.	.	.	.	.	.
8A\	.	8A/	.	4aa'\	.	.	.	.	.	.	4aa'\	.
!	!	!	!	!	!	!	!	!	!	!	!LO:LB:g=original	!
8G\J	.	8G/J	.	.	.	.	.	.	.	.	.	.
=88	=88	=88	=88	=88	=88	=88	=88	=88	=88	=88	=88	=88
8F\L	.	8F/L	.	4ff'\	.	2aa\	.	2f\	2a\	2ryy	4ff'\	2aa\
8G\	.	8G/	.	.	.	.	.	.	.	.	.	.
8A\	.	8A/	.	4dd'\	.	.	.	.	.	.	4dd'\	.
8F\J	.	8F/J	.	.	.	.	.	.	.	.	.	.
=89	=89	=89	=89	=89	=89	=89	=89	=89	=89	=89	=89	=89
8D\L	.	8D/L	.	2ff\	.	4r	.	2A/	2f\	2ryy	2ff\	4r
8F\	.	8F/	.	.	.	.	.	.	.	.	.	.
8A\	.	8A/	.	.	.	4aa'\	.	.	.	.	.	4aa\
8G\J	.	8G/J	.	.	.	.	.	.	.	.	.	.
!LO:LB:g=original	!	!	!	!	!	!	!	!	!	!	!	!
=90	=90	=90	=90	=90	=90	=90	=90	=90	=90	=90	=90	=90
8F\L	.	8F/L	.	2dd\	.	4ff'\	.	2A/	2f\	2ryy	2dd\	4ff\
8E\	.	8E/	.	.	.	.	.	.	.	.	.	.
8F\	.	8F/	.	.	.	4dd'\	.	.	.	.	.	4dd\
8D\J	.	8D/J	.	.	.	.	.	.	.	.	.	.
=91	=91	=91	=91	=91	=91	=91	=91	=91	=91	=91	=91	=91
8B-\L	.	8B-/L	.	4ee'\	.	2bb-\	.	2c/	2g\	2ryy	4ee'\	2bb-\
8A\	.	8A/	.	.	.	.	.	.	.	.	.	.
8G\	.	8G/	.	4gg'\	.	.	.	.	.	.	4gg'\	.
8F\J	.	8F/J	.	.	.	.	.	.	.	.	.	.
=92	=92	=92	=92	=92	=92	=92	=92	=92	=92	=92	=92	=92
8E\L	.	8E/L	.	4ee'\	.	2gg\	.	2c/	2g\	2ryy	4ee'\	2gg\
8F\	.	8F/	.	.	.	.	.	.	.	.	.	.
8G\	.	8G/	.	4cc'\	.	.	.	.	.	.	4cc'\	.
8E\J	.	8E/J	.	.	.	.	.	.	.	.	.	.
=93	=93	=93	=93	=93	=93	=93	=93	=93	=93	=93	=93	=93
8Cn\L	.	8C/L	.	2ee\	.	4r	.	2c/	2g\	2ryy	2ee\	4r
8E\	.	8E/	.	.	.	.	.	.	.	.	.	.
8G\	.	8G/	.	.	.	4gg'\	.	.	.	.	.	4gg\
8F\J	.	8F/J	.	.	.	.	.	.	.	.	.	.
!	!	!LO:LB:g=original	!	!	!	!	!	!	!	!	!	!
=94	=94	=94	=94	=94	=94	=94	=94	=94	=94	=94	=94	=94
8E\L	.	8E/L	.	2cc\	.	4ee'\	.	2c/	2g\	2ryy	2cc\	4ee\
!	!	!	!	!	!	!	!	!LO:LB:g=original	!	!	!	!
8D\	.	8D/	.	.	.	.	.	.	.	.	.	.
!	!	!	!	!	!	!LO:TX:a:t=SIC&colon;s=4ccn	!	!	!	!	!	!
8E\	.	8E/	.	.	.	4cc#X'\	.	.	.	.	.	4cc\
8C\J	.	8C/J	.	.	.	.	.	.	.	.	.	.
=95	=95	=95	=95	=95	=95	=95	=95	=95	=95	=95	=95	=95
*	*	*	*	*tremolo	*	*tremolo	*	*	*	*	*	*
8F\L	.	8F/L	.	16ff\LL	.	16ff\LL	.	2f\	2a\	2ryy	2ff\	4ff\
.	.	.	.	16ff\	.	16aa\	.	.	.	.	.	.
8E\	.	8E/	.	16ff\	.	16aa\	.	.	.	.	.	.
.	.	.	.	16ff\	.	16aa\JJ	.	.	.	.	.	.
8F\	.	8F/	.	16ff\	.	16aa\LL	.	.	.	.	.	4aa\
.	.	.	.	16ff\	.	16aa\	.	.	.	.	.	.
8G\J	.	8G/J	.	16ff\	.	16aa\	.	.	.	.	.	.
.	.	.	.	16ff\JJ	.	16aa\JJ	.	.	.	.	.	.
=96	=96	=96	=96	=96	=96	=96	=96	=96	=96	=96	=96	=96
8A\L	.	8A/L	.	16ff\LL	.	16aa\LL	.	2f\	2a\	2ryy	2ff\	2aa\
.	.	.	.	16ff\	.	16aa\	.	.	.	.	.	.
8G\	.	8G/	.	16ff\	.	16aa\	.	.	.	.	.	.
.	.	.	.	16ff\	.	16aa\	.	.	.	.	.	.
8A\	.	8A/	.	16ff\	.	16aa\	.	.	.	.	.	.
.	.	.	.	16ff\	.	16aa\	.	.	.	.	.	.
8F\J	.	8F/J	.	16ff\	.	16aa\	.	.	.	.	.	.
.	.	.	.	16ff\JJ	.	16aa\JJ	.	.	.	.	.	.
!	!	!	!	!	!	!LO:LB:g=original	!	!	!	!	!	!
=97	=97	=97	=97	=97	=97	=97	=97	=97	=97	=97	=97	=97
8B-\L	.	8B-/L	.	16ee\LL	.	16gg\LL	.	2f\	2a\	2ryy	2ee\	2aa\
.	.	.	.	16ee\	.	16gg\	.	.	.	.	.	.
8A\	.	8A/	.	16ee\	.	16gg\	.	.	.	.	.	.
.	.	.	.	16ee\	.	16gg\	.	.	.	.	.	.
8B-\	.	8B-/	.	16ee\	.	16gg\	.	.	.	.	.	.
.	.	.	.	16ee\	.	16gg\	.	.	.	.	.	.
8G\J	.	8G/J	.	16ee\	.	16gg\	.	.	.	.	.	.
!LO:LB:g=original	!	!	!	!	!	!	!	!	!	!	!	!
.	.	.	.	16ee\JJ	.	16gg\JJ	.	.	.	.	.	.
=98	=98	=98	=98	=98	=98	=98	=98	=98	=98	=98	=98	=98
8c\L	.	8c/L	.	16ee\LL	.	16gg\LL	.	2c/	2g\	2ryy	2ee\	2gg\
!	!	!	!	!	!	!	!	!	!LO:LB:g=original	!	!	!
.	.	.	.	16ee\	.	16gg\	.	.	.	.	.	.
8Bn\	.	8Bn/	.	16ee\	.	16gg\	.	.	.	.	.	.
.	.	.	.	16ee\	.	16gg\	.	.	.	.	.	.
8c\	.	8c/	.	16ee\	.	16gg\	.	.	.	.	.	.
.	.	.	.	16ee\	.	16gg\	.	.	.	.	.	.
8C/J	.	8C/J	.	16ee\	.	16gg\	.	.	.	.	.	.
.	.	.	.	16ee\JJ	.	16gg\JJ	.	.	.	.	.	.
!	!	!	!	!LO:LB:g=original	!	!	!	!	!	!	!	!
=99	=99	=99	=99	=99	=99	=99	=99	=99	=99	=99	=99	=99
*	*	*	*	*^	*	*	*	*	*	*	*	*
8F/L	.	8F/L	.	4ff\	4reyy	.	4ff\	.	4A/	4f\	2ryy	4ff\	4ff\
8F/	.	8f\	.	.	.	.	.	.	.	.	.	.	.
8C/	.	8c\	.	4a/	4f\	.	4f/ 4cc 4ff	.	4A/	4f\	.	4a\	4ff\
8AA/J	.	8A\J	.	.	.	.	.	.	.	.	.	.	.
=100	=100	=100	=100	=100	=100	=100	=100	=100	=100	=100	=100	=100	=100
4FF/	.	4F/	.	4a/	4f\	.	4f/ 4cc 4ff	.	4A/	4f\	2ryy	4a\	4ff\
16A\LL	.	(16A/LL	.	4r	4ryy	.	4r	.	4r	4r	.	4r	4r
16G\	.	16G/	.	.	.	.	.	.	.	.	.	.	.
16F\	.	16F/	.	.	.	.	.	.	.	.	.	.	.
16E\JJ	.	16E/JJ)	.	.	.	.	.	.	.	.	.	.	.
*	*	*	*	*v	*v	*	*	*	*	*	*	*	*
=101	=101	=101	=101	=101	=101	=101	=101	=101	=101	=101	=101	=101
4D\	.	4D/	.	4f/	.	4dd\	.	2r	2r	2ryy	4f/	4dd\
!	!	!	!	!	!	!LO:TX:t=P:problem=niejednoznaczny zapis łuku	!	!	!	!	!	!
4r	.	4r	.	4r	.	(16a/LL	.	.	.	.	4r	4r
!	!	!LO:LB:g=original	!	!	!	!	!	!	!	!	!	!
.	.	.	.	.	.	16g/	.	.	.	.	.	.
.	.	.	.	.	.	16f/	.	.	.	.	.	.
.	.	.	.	.	.	16e/JJ)	.	.	.	.	.	.
=102	=102	=102	=102	=102	=102	=102	=102	=102	=102	=102	=102	=102
4F\	.	4f'\	.	2f/	.	4d/	.	2r	2r	2ryy	4f/	4dd\
4D\	.	4d'\	.	.	.	4dd\	.	.	.	.	4dd\	4ff\
=103	=103	=103	=103	=103	=103	=103	=103	=103	=103	=103	=103	=103
4A\	.	4a\	.	4e'/	.	4cc#X'\	.	2r	2r	2ryy	4cc#X\	4ee\
(16E/LL	.	(16e\LL	.	4g'/	.	4ee'\	.	.	.	.	4cc#\	4ee\
!	!	!	!	!	!	!	!	!	!	!	!LO:LB:g=original	!
16D/	.	16d\	.	.	.	.	.	.	.	.	.	.
16C#X/	.	16c#X\	.	.	.	.	.	.	.	.	.	.
16BB-/JJ)	.	16B-\JJ)	.	.	.	.	.	.	.	.	.	.
=104	=104	=104	=104	=104	=104	=104	=104	=104	=104	=104	=104	=104
4AA/	.	4A/	.	4.c#X/	.	4.a'/	.	2r	2r	2ryy	2cc#X\	2ee\
4A\	.	4c#X\	.	.	.	.	.	.	.	.	.	.
.	.	.	.	8e/	.	8g'/	.	.	.	.	.	.
=105	=105	=105	=105	=105	=105	=105	=105	=105	=105	=105	=105	=105
4d\	.	4d\	.	8f'/L	.	8f'/L	.	2r	2r	2ryy	2r	2r
.	.	.	.	8e'/	.	8e'/	.	.	.	.	.	.
4D\	.	4d\	.	8f'/	.	8f'/	.	.	.	.	.	.
.	.	.	.	8d'/J	.	8d'/J	.	.	.	.	.	.
=106	=106	=106	=106	=106	=106	=106	=106	=106	=106	=106	=106	=106
*	*	*	*	*Xtremolo	*	*Xtremolo	*	*	*	*	*	*
4F\	.	4f\	.	8c#X/L	.	8c#X'/L	.	2r	2r	2ryy	2r	2r
.	.	.	.	8d/	.	8d'/	.	.	.	.	.	.
4D\	.	4d\	.	8c#/	.	8c#'/	.	.	.	.	.	.
!LO:LB:g=original	!	!	!	!	!	!	!	!	!	!	!	!
.	.	.	.	8d/J	.	8d'/J	.	.	.	.	.	.
=107	=107	=107	=107	=107	=107	=107	=107	=107	=107	=107	=107	=107
4A\	.	4c#X/	.	4e/	.	4e'/	.	2r	2r	2ryy	4cc#X\	4ee\
4AA/	.	4A/	.	4c#X/	.	4c#X'/	.	.	.	.	4cc#\	4ee\
=108	=108	=108	=108	=108	=108	=108	=108	=108	=108	=108	=108	=108
!	!	!	!	!	!	!	!	!	!	!	!LO:TX:a:t=SIC&colon;s=4cc#	!
8A'\L	.	8A'/L	.	4A/	.	4A/	.	2r	2r	2ryy	4cc\	4ee\
8G'\	.	8G'/	.	.	.	.	.	.	.	.	.	.
8F'\	.	8F'/	.	4r	.	4r	.	.	.	.	4r	4r
!	!	!	!	!	!	!LO:LB:g=original	!	!	!	!	!	!LO:LB:g=original
8E'\J	.	8E'/J	.	.	.	.	.	.	.	.	.	.
=109	=109	=109	=109	=109	=109	=109	=109	=109	=109	=109	=109	=109
4D\	.	4D/	.	4d/	.	4d/	.	2r	2r	2ryy	4f/	4dd\
4r	.	4r	.	4r	.	(16a/LL	.	.	.	.	4r	4r
.	.	.	.	.	.	16g/	.	.	.	.	.	.
.	.	.	.	.	.	16f/	.	.	.	.	.	.
.	.	.	.	.	.	16e/JJ)	.	.	.	.	.	.
=110	=110	=110	=110	=110	=110	=110	=110	=110	=110	=110	=110	=110
4F'\	.	4f'\	.	2f/	.	4d/	.	2r	2r	2ryy	4f/	4dd\
4D'\	.	4d'\	.	.	.	4dd\	.	.	.	.	4dd\	4ff\
=111	=111	=111	=111	=111	=111	=111	=111	=111	=111	=111	=111	=111
4A\	.	4a\	.	4e'/	.	4cc#X\	.	2r	2r	2ryy	4cc#X\	4ee\
(16E/LL	.	(16e\LL	.	4g'/	.	4ee\	.	.	.	.	4cc#\	4ee\
!	!	!	!	!LO:LB:g=original	!	!	!	!	!	!	!	!
16D/	.	16d\	.	.	.	.	.	.	.	.	.	.
16C#X/	.	16c#X\	.	.	.	.	.	.	.	.	.	.
16BB-/JJ)	.	16B-\JJ)	.	.	.	.	.	.	.	.	.	.
!	!	!LO:LB:g=original	!	!	!	!	!	!	!	!	!	!
=112	=112	=112	=112	=112	=112	=112	=112	=112	=112	=112	=112	=112
!	!	!	!	!	!	!LO:TX:b:t=|	!	!	!	!	!LO:TX:a:t=SIC&colon;s=2cc#	!
4AA/	.	4A/	.	4.c#X'/	.	4.a/	.	2r	2r	2ryy	2cc\	2ee\
4A\	.	4c#X/	.	.	.	.	.	.	.	.	.	.
!	!	!	!	!	!	!LO:TX:b:t=|	!	!	!	!	!	!
.	.	.	.	8e'/	.	8g/	.	.	.	.	.	.
=113	=113	=113	=113	=113	=113	=113	=113	=113	=113	=113	=113	=113
4d\	.	4d\	.	8f'/L	.	8f'/L	.	2r	2r	2ryy	2a/	2ff\
.	.	.	.	8e'/	.	8e'/	.	.	.	.	.	.
4D\	.	4d\	.	8f'/	.	8f'/	.	.	.	.	.	.
.	.	.	.	8d'/J	.	8d'/J	.	.	.	.	.	.
=114	=114	=114	=114	=114	=114	=114	=114	=114	=114	=114	=114	=114
4A\	.	4A/	.	8c#X'/L	.	8c#X'/L	.	2r	2r	2ryy	2g/	2ee\
.	.	.	.	8e'/J	.	8e'/	.	.	.	.	.	.
4AA/	.	4A/	.	8A'/L	.	8A'/	.	.	.	.	.	.
.	.	.	.	8c#'/J	.	8c#'/J	.	.	.	.	.	.
=115	=115	=115	=115	=115	=115	=115	=115	=115	=115	=115	=115	=115
4D\	.	4F/	.	4d'/	.	4d'/	.	2r	2r	2ryy	4f/	4dd\
4D\	.	4F/	.	4d'/	.	4d'/	.	.	.	.	4f/	4dd\
=116	=116	=116	=116	=116	=116	=116	=116	=116	=116	=116	=116	=116
8D\L	.	4F/	.	4d/	.	4d/	.	2r	2r	2ryy	4f/	4dd\
8d\J	.	.	.	.	.	.	.	.	.	.	.	.
4D\	.	4r	.	4r	.	4r	.	.	.	.	4r	4r
!LO:LB:g=original	!	!	!	!	!	!	!	!	!	!	!	!
=117:|!	=117:|!	=117:|!	=117:|!	=117:|!	=117:|!	=117:|!	=117:|!	=117:|!	=117:|!	=117:|!	=117:|!	=117:|!
!	!LO:DY:b:t=pia	!	!	!	!LO:DY:b:t=pia	!	!LO:DY:b:t=pia	!LO:TX:a:t=dal Segno	!LO:TX:a:t=dal Segno	!	!	!
4FF/	p	2r	.	4A/	p	4f/	p	2ryy	2ryy	2ryy	4a'/	4ff'\
4F\	.	.	.	4f/	.	4a/	.	.	.	.	4ff'\	4aa'\
=118	=118	=118	=118	=118	=118	=118	=118	=118	=118	=118	=118	=118
4FF/	.	2r	.	(4.a/	.	(4.cc\	.	2ryy	2ryy	2ryy	(4.aa\	(4.ccc\
4F\	.	.	.	.	.	.	.	.	.	.	.	.
.	.	.	.	8g/)	.	8bn\)	.	.	.	.	8gg\)	8bbn\)
!	!	!	!	!	!	!LO:LB:g=original	!	!	!	!	!	!
=119	=119	=119	=119	=119	=119	=119	=119	=119	=119	=119	=119	=119
4FF/	.	2r	.	(8a/L	.	(8cc\L	.	2ryy	2ryy	2ryy	(8aa\L	(8ccc\L
.	.	.	.	8g/)	.	8bn\)	.	.	.	.	8gg\)	8bbn\)
4F\	.	.	.	(8a/	.	(8cc\	.	.	.	.	(8aa\	(8ccc\
.	.	.	.	8b-/J)	.	8dd\J)	.	.	.	.	8bb-\J)	8ddd\J)
!	!	!	!	!	!	!	!	!	!	!	!LO:LB:g=original	!
=120	=120	=120	=120	=120	=120	=120	=120	=120	=120	=120	=120	=120
4FF/	.	2r	.	(4.a/	.	(4.cc\	.	2ryy	2ryy	2ryy	(4.aa\	(4.ccc\
4F\	.	.	.	.	.	.	.	.	.	.	.	.
.	.	.	.	8f/)	.	8a\)	.	.	.	.	8ff\)	8aa\)
=121	=121	=121	=121	=121	=121	=121	=121	=121	=121	=121	=121	=121
4FF/	.	2r	.	(8a/L	.	(8cc\L	.	2ryy	2ryy	2ryy	(8aa\L	(8ccc\L
.	.	.	.	8g/)	.	8bn\)	.	.	.	.	8gg\)	8bbn\)
4F\	.	.	.	(8a/	.	(8cc\	.	.	.	.	(8aa\	(8ccc\
.	.	.	.	8b-/J)	.	8dd\J)	.	.	.	.	8bb-\J)	8ddd\J)
!	!	!	!	!LO:LB:g=original	!	!	!	!	!	!	!	!
=122	=122	=122	=122	=122	=122	=122	=122	=122	=122	=122	=122	=122
4FF/	.	2r	.	(8a/L	.	(8cc\L	.	2ryy	2ryy	2ryy	(8aa\L	(8ccc\L
.	.	.	.	8g/)	.	8bn\)	.	.	.	.	8gg\)	8bbn\)
4F\	.	.	.	(8a/	.	(8cc\	.	.	.	.	(8aa\	(8ccc\
.	.	.	.	8f/J)	.	8a\J)	.	.	.	.	8ff\J)	8aa\J)
=123	=123	=123	=123	=123	=123	=123	=123	=123	=123	=123	=123	=123
4FF/	.	2r	.	8A/L	.	8f/L	.	2ryy	2ryy	2ryy	8a\L	8ff\L
.	.	.	.	8A/J	.	8f/J	.	.	.	.	8a\J	8ff\J
4F\	.	.	.	(16B-/LL	.	(16g/LL	.	.	.	.	(16b-\LL	(16gg\LL
.	.	.	.	16A/)	.	16f/	.	.	.	.	16a\)	16ff\
.	.	.	.	(16B-/	.	16g/	.	.	.	.	(16b-\	16gg\
.	.	.	.	16c/JJ)	.	16a/JJ)	.	.	.	.	16cc\JJ)	16aa\JJ)
!	!	!	!	!	!	!	!	!	!	!	!	!LO:LB:g=original
=124	=124	=124	=124	=124	=124	=124	=124	=124	=124	=124	=124	=124
4FF/	.	2r	.	8A'/L	.	8f'/L	.	2ryy	2ryy	2ryy	(8a|\L	8ff'\L
.	.	.	.	8A'/	.	8c'/	.	.	.	.	8a|\)	8cc'\
4F\	.	.	.	8A'/	.	8f'/	.	.	.	.	8a|\	8ff'\
.	.	.	.	8c'/J	.	8a'/J	.	.	.	.	8cc|\J	8aa'\J
=125	=125	=125	=125	=125	=125	=125	=125	=125	=125	=125	=125	=125
4FF/	.	2r	.	8A/L	.	8f/L	.	2ryy	2ryy	2ryy	8a'\L	8ff\L
.	.	.	.	8A/J	.	8f/J	.	.	.	.	8a'\J	8ff\J
4F\	.	.	.	(16B-/LL	.	(16g/LL	.	.	.	.	(16b-\LL	(16gg\LL
.	.	.	.	16A/)	.	16f/	.	.	.	.	16a\)	16ff\)
.	.	.	.	(16B-/	.	16g/	.	.	.	.	(16b-\	(16gg\
.	.	.	.	16c/JJ)	.	16a/JJ)	.	.	.	.	16cc\JJ)	16aa\JJ)
=126	=126	=126	=126	=126	=126	=126	=126	=126	=126	=126	=126	=126
8FF/L	.	2r	.	4A/	.	4f/	.	8ryy	8ryy	2ryy	4a\	4ff\
8F\J	.	.	.	.	.	.	.	8A/yy	8f\yy	.	.	.
4FF/	.	.	.	4r	.	4r	.	[4A/yy	[4f\yy	.	4r	4r
=127	=127	=127	=127	=127	=127	=127	=127	=127	=127	=127	=127	=127
!	!LO:DY:b:t=for	!	!LO:DY:b:t=for	!	!LO:DY:b:t=for	!	!LO:DY:b:t=for	!	!	!	!LO:TX:t=P:problem=takty nr 127-136 zapisane repetycją	!LO:TX:t=P:problem=takty nr 127-136 zapisane repetycją
4FF/	f	4F/	f	4a\	f	4ff'\	f	[2F/]	[2f\]	2ryy	4a'/yy	4ff'\yy
4F\	.	4f\	.	4ff\	.	4aa'\	.	.	.	.	[4ff'\yy	[4aa'\yy
!LO:LB:g=original	!	!	!	!	!	!LO:LB:g=original	!	!	!	!	!	!
=128	=128	=128	=128	=128	=128	=128	=128	=128	=128	=128	=128	=128
4FF/	.	4F/	.	(4.aa\	.	(4.ccc\	.	[2F/]	[2f\]	2ryy	(4.aa\]	(4.ccc\]
4F\	.	4f\	.	.	.	.	.	.	.	.	.	.
.	.	.	.	8gg\)	.	8bbn\)	.	.	.	.	[8gg\)yy	[8bbn\)yy
=129	=129	=129	=129	=129	=129	=129	=129	=129	=129	=129	=129	=129
4FF/	.	4F/	.	(8aa\L	.	(8ccc\L	.	[2F/]	[2f\]	2ryy	(8aa\L]	(8ccc\L]
.	.	.	.	8gg\)	.	8bbn\)	.	.	.	.	8gg\)yy	8bbn\)yy
4F\	.	4f\	.	(8aa\	.	(8ccc\	.	.	.	.	(8aa\yy	(8ccc\yy
.	.	.	.	8bb-\J)	.	8ddd\J)	.	.	.	.	[8bb-\J)yy	[8ddd\J)yy
=130	=130	=130	=130	=130	=130	=130	=130	=130	=130	=130	=130	=130
4FF/	.	4F/	.	(4.aa\	.	(4.ccc\	.	[2F/]	[2f\]	2ryy	(4.aa\]	(4.ccc\]
4F\	.	4f\	.	.	.	.	.	.	.	.	.	.
.	.	.	.	8ff\)	.	8aa\)	.	.	.	.	[8ff\)yy	[8aa\)yy
!	!	!	!	!LO:LB:g=original	!	!	!	!	!	!	!	!
=131	=131	=131	=131	=131	=131	=131	=131	=131	=131	=131	=131	=131
4FF/	.	4F/	.	(8aa\L	.	(8ccc\L	.	[2F/]	[2f\]	2ryy	(8aa\L]	(8ccc\L]
.	.	.	.	8gg\	.	8bbn\J)	.	.	.	.	8gg\)yy	8bbn\)yy
4F\	.	4f\	.	8aa\	.	(8ccc\L	.	.	.	.	(8aa\yy	(8ccc\yy
!	!	!LO:LB:g=original	!	!	!	!	!	!	!	!	!	!
.	.	.	.	8bb-\J)	.	8ddd\J)	.	.	.	.	[8bb-\J)yy	[8ddd\J)yy
=132	=132	=132	=132	=132	=132	=132	=132	=132	=132	=132	=132	=132
4FF/	.	4F/	.	(8aa\L	.	(8ccc\L	.	[2F/]	[2f\]	2ryy	(8aa\L]	(8ccc\L]
.	.	.	.	8gg\)	.	8bbn\J)	.	.	.	.	8gg\)yy	8bbn\)yy
4F\	.	4f\	.	(8aa\	.	(8ccc\L	.	.	.	.	(8aa\yy	(8ccc\yy
.	.	.	.	8ff\J)	.	8aa\J)	.	.	.	.	[8ff\J)yy	[8aa\J)yy
=133	=133	=133	=133	=133	=133	=133	=133	=133	=133	=133	=133	=133
4FF/	.	4F/	.	8a/L	.	8ff\L	.	[2F/]	[2f\]	2ryy	8a\L]	8ff\L]
.	.	.	.	8a/J	.	8ff\J	.	.	.	.	8a\Jyy	8ff\Jyy
4F\	.	4f\	.	(16b-/LL	.	(16gg\LL	.	.	.	.	(16b-\LLyy	(16gg\LLyy
.	.	.	.	16a/	.	16ff\)	.	.	.	.	16a\)yy	16ff\yy
.	.	.	.	16b-/	.	(16gg\	.	.	.	.	(16b-\yy	16gg\yy
.	.	.	.	16cc/JJ)	.	16aa\JJ)	.	.	.	.	[16cc\JJ)yy	[16aa\JJ)yy
=134	=134	=134	=134	=134	=134	=134	=134	=134	=134	=134	=134	=134
!	!	!	!	!	!	!LO:TX:a:t=|	!	!	!	!	!	!
4FF/	.	4F/	.	(8a/L	.	8ff\L	.	[2F/]	[2f\]	2ryy	(8a|\L]	8ff'\L]
!	!	!	!	!	!	!LO:TX:a:t=|	!	!	!	!	!	!
.	.	.	.	8a/)	.	8cc\	.	.	.	.	8a|\)yy	8cc'\yy
!	!	!	!	!	!	!LO:TX:a:t=|	!	!	!	!	!	!
4F\	.	4f\	.	8a'/	.	8ff\	.	.	.	.	8a|\yy	8ff'\yy
!	!	!	!	!	!	!LO:TX:a:t=|	!	!	!	!	!	!
.	.	.	.	8cc'/J	.	8aa\J	.	.	.	.	[8cc|\Jyy	[8aa'\Jyy
=135	=135	=135	=135	=135	=135	=135	=135	=135	=135	=135	=135	=135
4FF/	.	4F/	.	8a/L	.	8ff\L	.	2F/]	2f\]	2ryy	8a'\L]	8ff\L]
!	!	!	!	!	!	!	!	!	!LO:LB:g=original	!	!	!
!	!	!	!	!	!	!	!	!LO:LB:g=original	!	!	!	!
.	.	.	.	8a/J	.	8ff\J	.	.	.	.	8a'\Jyy	8ff\Jyy
4F\	.	4f\	.	(16b-/LL	.	(16gg\LL	.	.	.	.	(16b-\LLyy	(16gg\LLyy
.	.	.	.	16a/)	.	16ff\	.	.	.	.	16a\)yy	16ff\)yy
.	.	.	.	(16b-/	.	16gg\	.	.	.	.	(16b-\yy	(16gg\yy
.	.	.	.	16cc/JJ)	.	16aa\JJ)	.	.	.	.	[16cc\JJ)yy	[16aa\JJ)yy
!	!	!	!	!	!	!LO:LB:g=original	!	!	!	!	!	!
=136	=136	=136	=136	=136	=136	=136	=136	=136	=136	=136	=136	=136
8FF/L	.	8F/L	.	4a/	.	4ff\	.	8ryy	8ryy	2ryy	4a\]	4ff\]
8F\J	.	8f\J	.	.	.	.	.	8A/yy	8f\yy	.	.	.
4FF/	.	4F/	.	4r	.	4r	.	4A;/yy	4f;\yy	.	4ryy	4ryy
=137!|:	=137!|:	=137!|:	=137!|:	=137!|:	=137!|:	=137!|:	=137!|:	=137!|:	=137!|:	=137!|:	=137!|:	=137!|:
!	!LO:DY:b:t=pia	!	!LO:DY:b:t=pia	!	!LO:DY:b:t=pia	!	!LO:DY:b:t=pia	!	!	!	!	!
4F\	p	4f\	p	(8f/L	p	(8a/L	p	2r	2r	2ryy	8ff'\L	(8aa\L
.	.	.	.	8g/)	.	8b-/)	.	.	.	.	8gg'\	8bb-\
4r	.	4r	.	(8a/	.	(8cc/	.	.	.	.	(8aa\	8ccc\
.	.	.	.	8g/J)	.	8b-/J)	.	.	.	.	8gg\J)	8bb-\J)
=138	=138	=138	=138	=138	=138	=138	=138	=138	=138	=138	=138	=138
!	!LO:DY:b:t=for	!LO:TX:a:t=|	!	!	!	!	!	!	!	!	!	!
!	!	!	!LO:DY:b:t=for	!	!LO:DY:b:t=for	!	!LO:DY:b:t=for	!	!	!	!	!
8F'\L	f	8f\L	f	8f/L	f	8a/L	f	8f\L	8a|\L	2ryy	8ff'\L	8aa|\L
!	!	!LO:TX:a:t=|	!	!	!	!	!	!	!	!	!	!
8F'\J	.	8f\J	.	8f/J	.	8a/J	.	8f\J	8a|\J	.	8ff'\J	8aa|\J
4F'\	.	4f\	.	4f/	.	4a/	.	4f\	4a'\	.	4ff\	4aa|\
!LO:LB:g=original	!	!	!	!	!	!	!	!	!	!	!	!
=139	=139	=139	=139	=139	=139	=139	=139	=139	=139	=139	=139	=139
!	!LO:DY:b:t=pia	!	!LO:DY:b:t=pia	!	!LO:DY:b:t=pia	!	!LO:DY:b:t=pia	!	!	!	!	!
4C/	p	4c\	p	(8e/L	p	(8g/L	p	2r	2r	2ryy	(8ee\L	(8gg\L
.	.	.	.	8f/)	.	8a/)	.	.	.	.	8ff\)	8aa\
4r	.	4r	.	(8g/	.	(8b-/	.	.	.	.	(8gg\	8bb-\
.	.	.	.	8f/J)	.	8a/J)	.	.	.	.	8ff\J)	8aa\J)
!	!	!	!	!LO:LB:g=original	!	!	!	!	!	!	!	!
=140	=140	=140	=140	=140	=140	=140	=140	=140	=140	=140	=140	=140
!	!LO:DY:b:t=for	!LO:TX:a:t=|	!	!	!	!	!	!	!	!	!	!
!	!	!	!LO:DY:b:t=for	!	!LO:DY:b:t=for	!	!LO:DY:b:t=for	!	!	!	!	!
8C/L	f	8c\L	f	8e/L	f	8g/L	f	8c/L	8g'\L	2ryy	8ee'\L	8gg'\L
!	!	!LO:TX:a:t=|	!	!	!	!	!	!	!	!	!	!
8C/J	.	8c\J	.	8e/J	.	8g/J	.	8c/J	8g'\J	.	8ee'\J	8gg'\J
!	!	!LO:TX:a:t=|	!	!	!	!	!	!	!	!	!	!
4C/	.	4c\	.	4e/	.	4g/	.	4c/	4g'\	.	4ee'\	4gg'\
=141	=141	=141	=141	=141	=141	=141	=141	=141	=141	=141	=141	=141
!	!LO:DY:b:t=pia	!	!LO:DY:b:t=pia	!	!LO:DY:b:t=pia	!	!LO:DY:b:t=pia	!	!	!	!	!
4F\	p	4F/	p	(8A/L	p	(8f/L	p	2r	2r	2ryy	(8a\L	(8ff\L
.	.	.	.	8B-/)	.	8g/)	.	.	.	.	8b-\)	8gg\
4r	.	4r	.	(8c/	.	(8a/	.	.	.	.	(8cc\	8aa\
!	!	!LO:LB:g=original	!	!	!	!	!	!	!	!	!	!
.	.	.	.	8B-/J)	.	8g/J)	.	.	.	.	8b-\J)	8gg\J)
=142	=142	=142	=142	=142	=142	=142	=142	=142	=142	=142	=142	=142
!	!LO:DY:b:t=for	!	!LO:DY:b:t=for	!	!LO:DY:b:t=for	!	!LO:DY:b:t=for	!	!	!	!	!
8F\L	f	8F/L	f	8A/L	f	8f/L	f	8A/L	8f'\L	2ryy	8a/L	8ff'\L
8F\J	.	8F/J	.	8A/J	.	8f/J	.	8A/J	8f'\J	.	8a/J	8ff'\J
4F\	.	4F/	.	4A/	.	4f/	.	4A/	4f'\	.	4a/	4ff'\
!	!	!	!	!	!	!	!	!	!	!	!LO:LB:g=original	!
=143	=143	=143	=143	=143	=143	=143	=143	=143	=143	=143	=143	=143
!	!LO:DY:b:t=pia	!	!LO:DY:b:t=pia	!	!LO:DY:b:t=pia	!	!LO:DY:b:t=pia	!	!	!	!	!
4C/	p	4C/	p	(8c/L	p	(8e/L	p	2r	2r	2ryy	(8cc\L	(8ee\L
.	.	.	.	8e/)	.	8g/)	.	.	.	.	8ee\)	8gg\
4r	.	4r	.	(8g/	.	(8b-/	.	.	.	.	(8gg\	8bb-\
.	.	.	.	8f/J)	.	8a/J)	.	.	.	.	8ff\J)	8aa\J)
=144	=144	=144	=144	=144	=144	=144	=144	=144	=144	=144	=144	=144
!	!LO:DY:b:t=for	!	!LO:DY:b:t=for	!	!LO:DY:b:t=for	!	!LO:DY:b:t=for	!	!	!	!	!
8C/L	f	8C/L	f	8e/L	f	8g/L	f	8c/L	8g'\L	2ryy	8ee\L	8gg'\L
8C/J	.	8C/J	.	8e/J	.	8g/J	.	8c/J	8g'\J	.	8ee\J	8gg'\J
4C/	.	4C/	.	4e/	.	4g/	.	4c/	4g'\	.	4ee\	4gg\
!	!	!	!	!	!	!LO:LB:g=original	!	!	!	!	!	!
=145:|!|:	=145:|!|:	=145:|!|:	=145:|!|:	=145:|!|:	=145:|!|:	=145:|!|:	=145:|!|:	=145:|!|:	=145:|!|:	=145:|!|:	=145:|!|:	=145:|!|:
!	!LO:DY:b:t=pia	!	!LO:DY:b:t=pia	!	!LO:DY:b:t=pia	!	!LO:DY:b:t=pia	!	!	!	!	!
4C/	p	4C/	p	(8e/L	p	(8g/L	p	2r	2r	2ryy	(8ee\L	(8gg\L
.	.	.	.	8f/)	.	8a/)	.	.	.	.	8ff\)	8aa\
4r	.	4r	.	(8g/	.	(8b-/	.	.	.	.	(8gg\	8bb-\
.	.	.	.	8f/J)	.	8a/J)	.	.	.	.	8ff\J)	8aa\J)
!	!	!	!	!	!	!	!	!	!	!	!	!LO:LB:g=original
=146	=146	=146	=146	=146	=146	=146	=146	=146	=146	=146	=146	=146
!	!LO:DY:b:t=for	!	!LO:DY:b:t=for	!	!LO:DY:b:t=for	!	!LO:DY:b:t=for	!	!	!	!	!
8C/L	f	8C/L	f	8e/L	f	8g/L	f	8c/L	8g\L	2ryy	8ee\L	8gg'\L
8C/J	.	8C/J	.	8e/J	.	8g/J	.	8c/J	8g\J	.	8ee\J	8gg'\J
4C/	.	4C/	.	4e/	.	4g/	.	4c/	4g\	.	4ee\	4gg'\
!	!	!	!	!	!	!	!	!LO:LB:g=original	!LO:LB:g=original	!	!	!
=147	=147	=147	=147	=147	=147	=147	=147	=147	=147	=147	=147	=147
!	!LO:DY:b:t=pia	!	!LO:DY:b:t=pia	!	!LO:DY:b:t=pia	!	!LO:DY:b:t=pia	!	!	!	!	!
4F\	p	4F/	p	(8f/L	p	(8a\L	p	2r	2r	2ryy	(8ff\L	(8aa\L
.	.	.	.	8g/)	.	8b-\)	.	.	.	.	8gg\)	8bb-\
4r	.	4r	.	(8a/	.	(8cc\	.	.	.	.	(8aa\	8ccc\
!LO:LB:g=original	!	!	!	!	!	!	!	!	!	!	!	!
.	.	.	.	8g/J)	.	8b-\J)	.	.	.	.	8gg\J)	8bb-\J)
!	!	!	!	!LO:LB:g=original	!	!	!	!	!	!	!	!
=148	=148	=148	=148	=148	=148	=148	=148	=148	=148	=148	=148	=148
!	!LO:DY:b:t=for	!	!LO:DY:b:t=for	!	!LO:DY:b:t=for	!	!LO:DY:b:t=for	!	!	!	!	!
8F\L	f	8F/L	f	8f/L	f	8a\L	f	8f\L	8a'\L	2ryy	8ff\L	8aa'\L
8F\J	.	8F/J	.	8f/J	.	8a\J	.	8f\J	8a'\J	.	8ff\J	8aa'\J
4F\	.	4F/	.	4f/	.	4a\	.	4f\	4a'\	.	4ff\	4aa'\
!	!	!LO:LB:g=original	!	!	!	!	!	!	!	!	!	!
=149	=149	=149	=149	=149	=149	=149	=149	=149	=149	=149	=149	=149
!	!LO:DY:b:t=pia	!	!LO:DY:b:t=pia	!	!LO:DY:b:t=pia	!	!LO:DY:b:t=pia	!	!	!	!	!
4C/	p	4C/	p	(8e/L	p	(8g/L	p	2r	2r	2ryy	(8ee\L	(8gg\L
.	.	.	.	8f/)	.	8a/)	.	.	.	.	8ff\)	8aa\)
4r	.	4r	.	(8g/	.	(8b-/	.	.	.	.	(8gg\	(8bb-\
.	.	.	.	8f/J)	.	8a/J)	.	.	.	.	8ff\J)	8aa\J)
=150	=150	=150	=150	=150	=150	=150	=150	=150	=150	=150	=150	=150
!	!LO:DY:b:t=for	!	!LO:DY:b:t=for	!	!LO:DY:b:t=for	!	!LO:DY:b:t=for	!	!	!	!	!
8C/L	f	8C/L	f	8e/L	f	8g/L	f	8c/L	8g'\L	2ryy	8ee\L	8gg'\L
8C/J	.	8C/J	.	8e/J	.	8g/J	.	8c/J	8g'\J	.	8ee\J	8gg'\J
4C/	.	4C/	.	4e/	.	4g/	.	4c/	4g'\	.	4ee\	4gg'\
=151	=151	=151	=151	=151	=151	=151	=151	=151	=151	=151	=151	=151
!	!LO:DY:b:t=pia	!	!LO:DY:b:t=pia	!	!LO:DY:b:t=pia	!	!LO:DY:b:t=pia	!	!	!	!	!
4F\	p	4F/	p	(8f/L	p	(8a/L	p	2r	2r	2ryy	(8ff\L	(8aa\L
.	.	.	.	8a/)	.	8cc/)	.	.	.	.	8aa\)	8ccc\)
4F\	.	4F/	.	(8g/	.	(8b-/	.	.	.	.	(8gg\	(8bb-\
.	.	.	.	8f/J)	.	8a/J)	.	.	.	.	8ff\J)	8aa\J)
=152	=152	=152	=152	=152	=152	=152	=152	=152	=152	=152	=152	=152
!	!LO:DY:b:t=for	!	!LO:DY:b:t=for	!	!LO:DY:b:t=for	!	!LO:DY:b:t=for	!	!	!	!	!
8c\L	f	8c\L	f	8e/L	f	8g/L	f	8c/L	8g\L	2ryy	8ee\L	8gg'\L
8C/J	.	8C/J	.	8e/J	.	8g/J	.	8c/J	8g\J	.	8ee\J	8gg'\J
16c'\LL	.	16c'/LL	.	4e/	.	4g/	.	4c/	4g\	.	4ee\	4gg'\
!	!	!	!	!	!	!LO:LB:g=original	!	!	!	!	!	!
16B-'\	.	16B-'/	.	.	.	.	.	.	.	.	.	.
16A'\	.	16A'/	.	.	.	.	.	.	.	.	.	.
16G'\JJ	.	16G'/JJ	.	.	.	.	.	.	.	.	.	.
=153	=153	=153	=153	=153	=153	=153	=153	=153	=153	=153	=153	=153
!	!LO:DY:b:t=pia	!	!LO:DY:b:t=pia	!	!LO:DY:b:t=pia	!	!LO:DY:b:t=pia	!	!	!	!	!
4F\	p	4F/	p	(8f/L	p	(8a/L	p	2r	2r	2ryy	(8ff\L	(8aa\L
.	.	.	.	8g/)	.	8b-/)	.	.	.	.	8gg\)	8bb-\
4r	.	4r	.	(8a/	.	(8cc/	.	.	.	.	(8aa\	8ccc\
.	.	.	.	8g/J)	.	8b-/J)	.	.	.	.	8gg\J)	8bb-\J)
=154	=154	=154	=154	=154	=154	=154	=154	=154	=154	=154	=154	=154
!	!LO:DY:b:t=for	!	!LO:DY:b:t=for	!	!LO:DY:b:t=for	!	!LO:DY:b:t=for	!	!	!	!	!
8F\L	f	8f'\L	f	8f/L	f	8a/L	f	8f\L	8a\L	2ryy	8ff\L	8aa'\L
8F\J	.	8f'\J	.	8f/J	.	8a/J	.	8f\J	8a\J	.	8ff\J	8aa'\J
4F\	.	4f\	.	4f/	.	4a/	.	4f\	4a\	.	4ff\	4aa'\
=155	=155	=155	=155	=155	=155	=155	=155	=155	=155	=155	=155	=155
!	!LO:DY:b:t=pia	!	!LO:DY:b:t=pia	!	!LO:DY:b:t=pia	!	!LO:DY:b:t=pia	!	!	!	!	!
4C/	p	4c\	p	(8e/L	p	(8g/L	p	2r	2r	2ryy	(8ee\L	(8gg\L
.	.	.	.	8f/)	.	8a/)	.	.	.	.	8ff\	8aa\
4r	.	4r	.	(8g/	.	(8b-/	.	.	.	.	8gg\	8bb-\
!LO:LB:g=original	!	!	!	!	!	!	!	!	!	!	!	!
.	.	.	.	8f/J)	.	8a/J)	.	.	.	.	8ff\J)	8aa\J)
!	!	!	!	!	!	!	!	!	!	!	!LO:LB:g=original	!
=156	=156	=156	=156	=156	=156	=156	=156	=156	=156	=156	=156	=156
!	!LO:DY:b:t=for	!	!LO:DY:b:t=for	!	!LO:DY:b:t=for	!	!LO:DY:b:t=for	!	!	!	!	!
8C/L	f	8c'\L	f	8e/L	f	8g/L	f	8c/L	8g\L	2ryy	8ee\L	8gg'\L
8C/J	.	8c'\J	.	8e/J	.	8g/J	.	8c/J	8g\J	.	8ee\J	8gg'\J
4C/	.	4c\	.	4e/	.	4g/	.	4c/	4g\	.	4ee\	4gg'\
!	!	!LO:LB:g=original	!	!LO:LB:g=original	!	!	!LO:LB:g=original	!	!	!	!	!
=157	=157	=157	=157	=157	=157	=157	=157	=157	=157	=157	=157	=157
!	!LO:DY:b:t=pia	!	!LO:DY:b:t=pia	!	!LO:DY:b:t=pia	!	!LO:DY:b:t=pia	!	!	!	!	!
4F\	p	4F/	p	(8A/L	p	(8f/L	p	2r	2r	2ryy	(8a/L	(8ff\L
!	!	!	!	!	!	!	!	!	!LO:LB:g=original	!	!	!
.	.	.	.	8B-/)	.	8g/)	.	.	.	.	8b-/	8gg\
4r	.	4r	.	(8c/	.	(8a/	.	.	.	.	8cc/	8aa\
.	.	.	.	8B-/J)	.	8g/J)	.	.	.	.	8b-/J)	8gg\J)
!	!	!	!	!	!	!	!	!	!	!	!	!LO:LB:g=original
=158	=158	=158	=158	=158	=158	=158	=158	=158	=158	=158	=158	=158
!	!LO:DY:b:t=for	!	!LO:DY:b:t=for	!	!LO:DY:b:t=for	!	!LO:DY:b:t=for	!	!	!	!	!
8F\L	f	8F/L	f	8A/L	f	8f/L	f	8A/L	8f\L	2ryy	8a/L	8ff'\L
8F\J	.	8F/J	.	8A/J	.	8f/J	.	8A/J	8f\J	.	8a/J	8ff'\J
4F\	.	4F/	.	4A/	.	4f/	.	4A/	4f\	.	4a/	4ff'\
=159	=159	=159	=159	=159	=159	=159	=159	=159	=159	=159	=159	=159
!	!LO:DY:b:t=pia	!	!LO:DY:b:t=pia	!	!LO:DY:b:t=pia	!	!LO:DY:b:t=pia	!	!	!	!	!
4C/	p	4C/	p	8c/L	p	(8e/L	p	2r	2r	2ryy	(8cc\L	(8ee\L
.	.	.	.	8e/	.	8g/)	.	.	.	.	8ee\)	8gg\)
4r	.	4r	.	8g/	.	(8b-/	.	.	.	.	(8gg\	(8bb-\
.	.	.	.	8e/J	.	8a/J)	.	.	.	.	8ee\J)	8aa\J)
=160	=160	=160	=160	=160	=160	=160	=160	=160	=160	=160	=160	=160
!	!LO:DY:b:t=for	!	!LO:DY:b:t=for	!	!LO:DY:b:t=for	!	!LO:DY:b:t=for	!	!	!	!	!
8F\L	f	8F/L	f	8A/L	f	8f/L	f	8A/L	8f\L	2ryy	8a/L	8ff\L
8F\J	.	8F/J	.	8A/J	.	8f/J	.	8A/J	8f\J	.	8a/J	8ff\J
4F\	.	4F/	.	4A/	.	4f/	.	4A/	4f\	.	4a/	4ff\
=161:|!	=161:|!	=161:|!	=161:|!	=161:|!	=161:|!	=161:|!	=161:|!	=161:|!	=161:|!	=161:|!	=161:|!	=161:|!
!	!LO:DY:b:t=pia	!	!	!	!LO:DY:b:t=pia	!	!LO:DY:b:t=pia	!LO:TX:a:t=dal Segno	!LO:TX:a:t=dal Segno	!	!	!
4FF/	p	2r	.	4A/	p	4f/	p	2ryy	2ryy	2ryy	4a'/	4ff'\
4F\	.	.	.	4f/	.	4a/	.	.	.	.	4ff'\	4aa'\
!	!	!	!	!	!	!LO:LB:g=original	!	!	!	!	!	!
=162	=162	=162	=162	=162	=162	=162	=162	=162	=162	=162	=162	=162
4FF/	.	2r	.	(4.a/	.	(4.cc\	.	2ryy	2ryy	2ryy	(4.aa\	(4.ccc\
4F\	.	.	.	.	.	.	.	.	.	.	.	.
.	.	.	.	8g/)	.	8bn\)	.	.	.	.	8gg\)	8bbn\)
=163	=163	=163	=163	=163	=163	=163	=163	=163	=163	=163	=163	=163
4FF/	.	2r	.	(8a/L	.	(8cc\L	.	2ryy	2ryy	2ryy	(8aa\L	(8ccc\L
.	.	.	.	8g/)	.	8bn\)	.	.	.	.	8gg\)	8bbn\
4F\	.	.	.	(8a/	.	(8cc\	.	.	.	.	(8aa\	8ccc\
.	.	.	.	8b-/J)	.	8dd\J)	.	.	.	.	8bb-\J)	8ddd\J)
=164	=164	=164	=164	=164	=164	=164	=164	=164	=164	=164	=164	=164
4FF/	.	2r	.	(4.a/	.	(4.cc\	.	2ryy	2ryy	2ryy	(4.aa\	(4.ccc\
4F\	.	.	.	.	.	.	.	.	.	.	.	.
!LO:LB:g=original	!	!	!	!	!	!	!	!	!	!	!	!
.	.	.	.	8f/)	.	8a\)	.	.	.	.	8ff\)	8aa\)
!	!	!	!	!LO:LB:g=original	!	!	!	!	!	!	!	!
=165	=165	=165	=165	=165	=165	=165	=165	=165	=165	=165	=165	=165
4FF/	.	2r	.	(8a/L	.	(8cc\L	.	2ryy	2ryy	2ryy	(8aa\L	(8ccc\L
.	.	.	.	8g/)	.	8bn\)	.	.	.	.	8gg\)	8bbn\)
4F\	.	.	.	(8a/	.	(8cc\	.	.	.	.	(8aa\	(8ccc\
.	.	.	.	8b-/J)	.	8dd\J)	.	.	.	.	8bb-\J)	8ddd\J)
=166	=166	=166	=166	=166	=166	=166	=166	=166	=166	=166	=166	=166
4FF/	.	2r	.	(8a/L	.	(8cc\L	.	2ryy	2ryy	2ryy	(8aa\L	(8ccc\L
.	.	.	.	8g/)	.	8bn\)	.	.	.	.	8gg\)	8bbn\)
4F\	.	.	.	(8a/	.	(8cc\	.	.	.	.	(8aa\	(8ccc\
.	.	.	.	8f/J)	.	8a\J)	.	.	.	.	8ff\J)	8aa\J)
=167	=167	=167	=167	=167	=167	=167	=167	=167	=167	=167	=167	=167
4FF/	.	2r	.	8A/L	.	8f/L	.	2ryy	2ryy	2ryy	8a/L	8ff'\L
.	.	.	.	8A/J	.	8f/J	.	.	.	.	8a/J	8ff'\J
!	!	!	!	!	!	!	!	!	!	!	!	!LO:LB:g=original
4F\	.	.	.	(16B-/LL	.	(16g/LL	.	.	.	.	(16b-/LL	(16gg\LL
.	.	.	.	16A/)	.	16f/)	.	.	.	.	16a/)	16ff\
.	.	.	.	(16B-/	.	(16g/	.	.	.	.	(16b-/	16gg\
.	.	.	.	16c/JJ)	.	16a/JJ)	.	.	.	.	16cc/JJ)	16aa\JJ)
=168	=168	=168	=168	=168	=168	=168	=168	=168	=168	=168	=168	=168
4FF/	.	2r	.	8A'/L	.	8f'/L	.	2ryy	2ryy	2ryy	8a/L	8ff'\L
.	.	.	.	8A'/	.	8c'/	.	.	.	.	8a/	8cc'\
4F\	.	.	.	8A'/	.	8f'/	.	.	.	.	8a/	8ff'\
.	.	.	.	8c'/J	.	8a'/J	.	.	.	.	8cc/J	8aa'\J
=169	=169	=169	=169	=169	=169	=169	=169	=169	=169	=169	=169	=169
4FF/	.	2r	.	8A'/L	.	8f/L	.	2ryy	2ryy	2ryy	8a/L	8ff\L
.	.	.	.	8A'/J	.	8f/J	.	.	.	.	8a/J	8ff\J
4F\	.	.	.	(16B-/LL	.	(16g/LL	.	.	.	.	(16b-/LL	(16gg\LL
.	.	.	.	16A/)	.	16f/)	.	.	.	.	16a/)	16ff\)
.	.	.	.	(16B-/	.	(16g/	.	.	.	.	(16b-/	(16gg\
.	.	.	.	16c/JJ)	.	16a/JJ)	.	.	.	.	16cc/JJ)	16aa\JJ)
!	!	!	!	!	!	!LO:LB:g=original	!	!	!	!	!LO:LB:g=original	!
=170	=170	=170	=170	=170	=170	=170	=170	=170	=170	=170	=170	=170
8FF/L	.	2r	.	4A/	.	4f/	.	8ryy	8ryy	2ryy	4a/	4ff\
8F\J	.	.	.	.	.	.	.	8A/yy	8f\yy	.	.	.
4FF/	.	.	.	4r	.	4r	.	[4A/yy	[4f\yy	.	4r	4r
=171	=171	=171	=171	=171	=171	=171	=171	=171	=171	=171	=171	=171
!	!LO:DY:b:t=for	!	!LO:DY:b:t=for	!	!LO:DY:b:t=for	!	!LO:DY:b:t=for	!	!	!	!LO:TX:t=P:problem=takty nr 171-180 zapisane repetycją	!LO:TX:t=P:problem=takty nr 171-180 zapisane repetycją
4FF/	f	4F/	f	4a\	f	4ff'\	f	[2F/]	[2f\]	2ryy	4a'/yy	4ff'\yy
4F\	.	4f\	.	4ff\	.	4aa'\	.	.	.	.	[4ff'\yy	[4aa'\yy
=172	=172	=172	=172	=172	=172	=172	=172	=172	=172	=172	=172	=172
4FF/	.	4F/	.	(4.aa\	.	(4.ccc\	.	[2F/]	[2f\]	2ryy	(4.aa\]	(4.ccc\]
4F\	.	4f\	.	.	.	.	.	.	.	.	.	.
.	.	.	.	8gg\)	.	8bbn\)	.	.	.	.	[8gg\)yy	[8bbn\)yy
!	!	!	!	!LO:LB:g=original	!	!	!	!	!	!	!	!
=173	=173	=173	=173	=173	=173	=173	=173	=173	=173	=173	=173	=173
4FF/	.	4F/	.	(8aa\L	.	(8ccc\L	.	[2F/]	[2f\]	2ryy	(8aa\L]	(8ccc\L]
.	.	.	.	8gg\)	.	8bbn\)	.	.	.	.	8gg\)yy	8bbn\yy
4F\	.	4f\	.	(8aa\	.	(8ccc\	.	.	.	.	(8aa\yy	8ccc\yy
.	.	.	.	8bb-\J)	.	8ddd\J)	.	.	.	.	[8bb-\J)yy	[8ddd\J)yy
=174	=174	=174	=174	=174	=174	=174	=174	=174	=174	=174	=174	=174
4FF/	.	4F/	.	(4.aa\	.	(4.ccc\	.	[2F/]	[2f\]	2ryy	(4.aa\]	(4.ccc\]
4F\	.	4f\	.	.	.	.	.	.	.	.	.	.
!	!	!LO:LB:g=original	!	!	!	!	!	!	!	!	!	!
.	.	.	.	8ff\)	.	8aa\)	.	.	.	.	[8ff\)yy	[8aa\)yy
=175	=175	=175	=175	=175	=175	=175	=175	=175	=175	=175	=175	=175
4FF/	.	4F/	.	(8aa\L	.	(8ccc\L	.	[2F/]	[2f\]	2ryy	(8aa\L]	(8ccc\L]
.	.	.	.	8gg\)	.	8bbn\)	.	.	.	.	8gg\)yy	8bbn\)yy
4F\	.	4f\	.	(8aa\	.	(8ccc\	.	.	.	.	(8aa\yy	(8ccc\yy
!LO:LB:g=original	!	!	!	!	!	!	!	!	!	!	!	!
.	.	.	.	8bb-\J)	.	8ddd\J)	.	.	.	.	[8bb-\J)yy	[8ddd\J)yy
=176	=176	=176	=176	=176	=176	=176	=176	=176	=176	=176	=176	=176
4FF/	.	4F/	.	(8aa\L	.	(8ccc\L	.	[2F/]	[2f\]	2ryy	(8aa\L]	(8ccc\L]
.	.	.	.	8gg\)	.	8bbn\)	.	.	.	.	8gg\)yy	8bbn\)yy
4F\	.	4f\	.	(8aa\	.	(8ccc\	.	.	.	.	(8aa\yy	(8ccc\yy
.	.	.	.	8ff\J)	.	8aa\J)	.	.	.	.	[8ff\J)yy	[8aa\J)yy
=177	=177	=177	=177	=177	=177	=177	=177	=177	=177	=177	=177	=177
4FF/	.	4F/	.	8a/L	.	8ff\L	.	[2F/]	[2f\]	2ryy	8a/L]	8ff'\L]
.	.	.	.	8a/J	.	8ff\J	.	.	.	.	8a/Jyy	8ff'\Jyy
4F\	.	4f\	.	(16b-/LL	.	(16gg\LL	.	.	.	.	(16b-/LLyy	(16gg\LLyy
.	.	.	.	16a/)	.	16ff\)	.	.	.	.	16a/)yy	16ff\yy
.	.	.	.	(16b-/	.	(16gg\	.	.	.	.	(16b-/yy	16gg\yy
.	.	.	.	16cc/JJ)	.	16aa\JJ)	.	.	.	.	[16cc/JJ)yy	[16aa\JJ)yy
!	!	!	!	!	!	!LO:LB:g=original	!	!	!	!	!	!
=178	=178	=178	=178	=178	=178	=178	=178	=178	=178	=178	=178	=178
4FF/	.	4F/	.	8a'/L	.	8ff'\L	.	[2F/]	[2f\]	2ryy	8a/L]	8ff'\L]
.	.	.	.	8a'/	.	8cc'\	.	.	.	.	8a/yy	8cc'\yy
4F\	.	4f\	.	8a'/	.	8ff'\	.	.	.	.	8a/yy	8ff'\yy
.	.	.	.	8cc'/J	.	8aa'\J	.	.	.	.	[8cc/Jyy	[8aa'\Jyy
=179	=179	=179	=179	=179	=179	=179	=179	=179	=179	=179	=179	=179
4FF/	.	4F/	.	8a/L	.	8ff'\L	.	2F/]	2f\]	2ryy	8a/L]	8ff\L]
!	!	!	!	!	!	!	!	!LO:LB:g=original	!LO:LB:g=original	!	!	!
.	.	.	.	8a/J	.	8ff'\J	.	.	.	.	8a/Jyy	8ff\Jyy
4F\	.	4f\	.	(16b-/LL	.	(16gg\LL	.	.	.	.	(16b-/LLyy	(16gg\LLyy
.	.	.	.	16a/)	.	16ff\	.	.	.	.	16a/)yy	16ff\)yy
.	.	.	.	(16b-/	.	16gg\	.	.	.	.	(16b-/yy	(16gg\yy
.	.	.	.	16cc/JJ)	.	16aa\JJ)	.	.	.	.	[16cc/JJ)yy	[16aa\JJ)yy
!	!	!	!	!LO:LB:g=original	!	!	!	!	!	!	!	!
=180	=180	=180	=180	=180	=180	=180	=180	=180	=180	=180	=180	=180
8FF/L	.	8F/L	.	4a/	.	4ff\	.	8ryy	8ryy	2ryy	4a/]	4ff\]
8F\J	.	8f\J	.	.	.	.	.	8A/yy	8f\yy	.	.	.
4FF/	.	4F/	.	4r	.	4r	.	4A;/yy	4f;\yy	.	4ryy	4ryy
=181	=181	=181	=181	=181	=181	=181	=181	=181	=181	=181	=181	=181
2r	.	2r	.	2r	.	2r	.	2r	2r	2ryy	8a\L	8ff\L
.	.	.	.	.	.	.	.	.	.	.	8a\J	8ff\J
.	.	.	.	.	.	.	.	.	.	.	(16b-\LL	(16gg\LL
.	.	.	.	.	.	.	.	.	.	.	16a\)	16ff\
.	.	.	.	.	.	.	.	.	.	.	(16b-\	16gg\
.	.	.	.	.	.	.	.	.	.	.	16cc\JJ)	16aa\JJ)
=182	=182	=182	=182	=182	=182	=182	=182	=182	=182	=182	=182	=182
8r	.	2r	.	2r	.	2r	.	8r	8r	2ryy	4a\	4ff\
!	!LO:DY:b:t=pia	!	!	!	!	!	!	!	!	!	!	!
8F\	p	.	.	.	.	.	.	8A/	8f\	.	.	.
4FF/	.	.	.	.	.	.	.	4A/	4f\	.	4r	4r
=183	=183	=183	=183	=183	=183	=183	=183	=183	=183	=183	=183	=183
2r	.	2r	.	2r	.	2r	.	2r	2r	2ryy	8ff\L	8aa\L
.	.	.	.	.	.	.	.	.	.	.	8ff\J	8aa\J
.	.	.	.	.	.	.	.	.	.	.	(16gg\LL	(16bb-\LL
.	.	.	.	.	.	.	.	.	.	.	16ff\	16aa\)
.	.	.	.	.	.	.	.	.	.	.	16gg\	(16bb-\
.	.	.	.	.	.	.	.	.	.	.	16aa\JJ)	16ccc\JJ)
=184	=184	=184	=184	=184	=184	=184	=184	=184	=184	=184	=184	=184
8r	.	2r	.	2r	.	2r	.	8r	8r	2ryy	4ff\	4aa\
8F\	.	.	.	.	.	.	.	8f\	8a\	.	.	.
4FF/	.	.	.	.	.	.	.	4f\	4a\	.	4r	4r
=185	=185	=185	=185	=185	=185	=185	=185	=185	=185	=185	=185	=185
!	!	!	!LO:DY:b:t=for	!	!LO:DY:b:t=for	!	!LO:DY:b:t=for	!	!	!	!	!
*	*	*	*	*tremolo	*	*tremolo	*	*	*	*	*	*
4F\	.	4A'/	f	16a/LL	f	16ff\LL	f	4A'/	4f'\	2ryy	2a/	2ff\
.	.	.	.	16a/	.	16ff\	.	.	.	.	.	.
.	.	.	.	16a/	.	16ff\	.	.	.	.	.	.
.	.	.	.	16a/	.	16ff\	.	.	.	.	.	.
!	!LO:DY:b:t=for	!	!	!	!	!	!	!	!	!	!	!
4A\	f	4f'\	.	16a/	.	16ff\	.	4f'\	4a'\	.	.	.
!LO:LB:g=original	!	!	!	!	!	!	!	!	!	!	!	!
.	.	.	.	16a/	.	16ff\	.	.	.	.	.	.
.	.	.	.	16a/	.	16ff\	.	.	.	.	.	.
.	.	.	.	16a/JJ	.	16ff\JJ	.	.	.	.	.	.
=186	=186	=186	=186	=186	=186	=186	=186	=186	=186	=186	=186	=186
(4.c\	.	(4.a\	.	16a/LL	.	16ff\LL	.	(4.a\	(4.cc\	2ryy	2a/	2ff\
.	.	.	.	16a/	.	16ff\	.	.	.	.	.	.
.	.	.	.	16a/	.	16ff\	.	.	.	.	.	.
.	.	.	.	16a/	.	16ff\	.	.	.	.	.	.
.	.	.	.	16a/	.	16ff\	.	.	.	.	.	.
.	.	.	.	16a/	.	16ff\	.	.	.	.	.	.
8Bn\)	.	8g\)	.	16a/	.	16ff\	.	8g\)	8bX\)	.	.	.
.	.	.	.	16a/JJ	.	16ff\JJ	.	.	.	.	.	.
=187	=187	=187	=187	=187	=187	=187	=187	=187	=187	=187	=187	=187
(8c\L	.	(8a\L	.	16a/LL	.	16ff\LL	.	(8a\L	(8cc\L	2ryy	2a/	2ff\
.	.	.	.	16a/	.	16ff\	.	.	.	.	.	.
8Bn\)	.	8g\)	.	16a/	.	16ff\	.	8g\)	8bX\	.	.	.
.	.	.	.	16a/	.	16ff\	.	.	.	.	.	.
(8c\	.	(8a\	.	16a/	.	16ff\	.	(8a\	8cc\	.	.	.
.	.	.	.	16a/	.	16ff\	.	.	.	.	.	.
8d\J)	.	8b-\J)	.	16a/	.	16ff\	.	8b-\J)	8dd\J)	.	.	.
!	!	!LO:LB:g=original	!	!	!	!	!	!	!	!	!	!
.	.	.	.	16a/JJ	.	16ff\JJ	.	.	.	.	.	.
=188	=188	=188	=188	=188	=188	=188	=188	=188	=188	=188	=188	=188
(4.c\	.	(4.a\	.	16a/LL	.	16ff\LL	.	(4.a\	(4.cc\	2ryy	2a/	2ff\
!	!	!	!	!	!	!	!	!	!	!	!	!LO:LB:g=original
.	.	.	.	16a/	.	16ff\	.	.	.	.	.	.
.	.	.	.	16a/	.	16ff\	.	.	.	.	.	.
.	.	.	.	16a/	.	16ff\	.	.	.	.	.	.
.	.	.	.	16a/	.	16ff\	.	.	.	.	.	.
.	.	.	.	16a/	.	16ff\	.	.	.	.	.	.
8A\)	.	8f\)	.	16a/	.	16ff\	.	8f\)	8a\)	.	.	.
.	.	.	.	16a/JJ	.	16ff\JJ	.	.	.	.	.	.
=189	=189	=189	=189	=189	=189	=189	=189	=189	=189	=189	=189	=189
(8c\L	.	(8a\L	.	16a/LL	.	16ff\LL	.	(8a\L	(8cc\L	2ryy	2a/	2ff\
.	.	.	.	16a/	.	16ff\	.	.	.	.	.	.
8Bn\J)	.	8g\)	.	16a/	.	16ff\	.	8g\)	8bX\)	.	.	.
.	.	.	.	16a/	.	16ff\	.	.	.	.	.	.
(8c\L	.	(8a\	.	16a/	.	16ff\	.	(8a\	(8cc\	.	.	.
.	.	.	.	16a/	.	16ff\	.	.	.	.	.	.
8d\J)	.	8b-\J)	.	16a/	.	16ff\	.	8b-\J)	8dd\J)	.	.	.
!	!	!	!	!	!	!	!	!LO:LB:g=original	!	!	!	!
.	.	.	.	16a/JJ	.	16ff\JJ	.	.	.	.	.	.
=190	=190	=190	=190	=190	=190	=190	=190	=190	=190	=190	=190	=190
(8c\L	.	(8a\L	.	16a/LL	.	16ff\LL	.	(8a\L	(8cc\L	2ryy	2a/	2ff\
.	.	.	.	16a/	.	16ff\	.	.	.	.	.	.
8Bn\J)	.	8g\)	.	16a/	.	16ff\	.	8g\)	8bX\)	.	.	.
.	.	.	.	16a/	.	16ff\	.	.	.	.	.	.
(8c\L	.	(8a\	.	16a/	.	16ff\	.	(8a\	(8cc\	.	.	.
.	.	.	.	16a/	.	16ff\	.	.	.	.	.	.
8A\J)	.	8f\J)	.	16a/	.	16ff\	.	8f\J)	8a\J)	.	.	.
!	!	!	!	!	!	!	!	!	!LO:LB:g=original	!	!	!
.	.	.	.	16a/JJ	.	16ff\JJ	.	.	.	.	.	.
=191	=191	=191	=191	=191	=191	=191	=191	=191	=191	=191	=191	=191
8F\L	.	8A/L	.	16a/LL	.	16ff\LL	.	8A/L	8f\L	2ryy	2a/	2ff\
.	.	.	.	16a/	.	16ff\	.	.	.	.	.	.
8F\J	.	8A/J	.	16a/	.	16ff\	.	8A/J	8f\J	.	.	.
.	.	.	.	16a/	.	16ff\	.	.	.	.	.	.
(16G\LL	.	(16B-/LL	.	16a/	.	16ff\	.	4c/	(16g\LL	.	.	.
16F\)	.	16A/)	.	16a/	.	16ff\	.	.	16f\)	.	.	.
(16G\	.	(16B-/	.	16a/	.	16ff\	.	.	(16g\	.	.	.
16A\JJ)	.	16c/JJ)	.	16a/JJ	.	16ff\JJ	.	.	16a\JJ)	.	.	.
!LO:LB:g=original	!	!	!	!	!	!LO:LB:g=original	!	!	!	!	!	!
=192	=192	=192	=192	=192	=192	=192	=192	=192	=192	=192	=192	=192
8F'\L	.	8A'/L	.	16a/LL	.	16ff\LL	.	8A'/L	8f'\L	2ryy	2a/	2ff\
.	.	.	.	16a/	.	16ff\	.	.	.	.	.	.
8C'\	.	8A'/	.	16a/	.	16ff\	.	8A'/	8c'\	.	.	.
.	.	.	.	16a/	.	16ff\	.	.	.	.	.	.
8F'\	.	8A'/	.	16a/	.	16ff\	.	8A'/	8f'\	.	.	.
.	.	.	.	16a/	.	16ff\	.	.	.	.	.	.
8A'\J	.	8c'/J	.	16a/	.	16ff\	.	8c'/J	8a'\J	.	.	.
.	.	.	.	16a/JJ	.	16ff\JJ	.	.	.	.	.	.
=193	=193	=193	=193	=193	=193	=193	=193	=193	=193	=193	=193	=193
8F'\L	.	8A/L	.	16a/LL	.	16ff\LL	.	8A/L	8f\L	2ryy	2a/	2ff\
.	.	.	.	16a/	.	16ff\	.	.	.	.	.	.
8F'\J	.	8A/J	.	16a/	.	16ff\	.	8A/J	8f\J	.	.	.
.	.	.	.	16a/	.	16ff\	.	.	.	.	.	.
(16G\LL	.	(16B-/LL	.	16a/	.	16ff\	.	4c/	(16g\LL	.	.	.
16F\)	.	16A/)	.	16a/	.	16ff\	.	.	16f\)	.	.	.
(16G\	.	(16B-/	.	16a/	.	16ff\	.	.	(16g\	.	.	.
16A\JJ)	.	16c/JJ)	.	16a/JJ	.	16ff\JJ	.	.	16a\JJ)	.	.	.
*	*	*	*	*	*	*Xtremolo	*	*	*	*	*	*
*	*	*	*	*Xtremolo	*	*	*	*	*	*	*	*
=194	=194	=194	=194	=194	=194	=194	=194	=194	=194	=194	=194	=194
4F\	.	4A/	.	8a'/L	.	8ff'\L	.	4A/	4f\	2ryy	4a/	4ff\
.	.	.	.	8ff'\J	.	8aa'\	.	.	.	.	.	.
4r	.	4r	.	8aa'\L	.	8ccc'\	.	4r	4r	.	4r	4r
!	!	!LO:LB:g=original	!	!	!	!	!	!	!	!	!	!
.	.	.	.	8ff'\J	.	8aa'\J	.	.	.	.	.	.
=195	=195	=195	=195	=195	=195	=195	=195	=195	=195	=195	=195	=195
*	*	*^	*	*^	*	*	*	*	*	*	*	*
!	!	!	!	!	!LO:LB:g=original	!	!	!	!	!	!	!	!	!
8F'/L	.	4A/	4F\	.	4a/	4reyy	.	4ff\	.	4A/	4f\	2ryy	4a/	4ff\
8F'/	.	.	.	.	.	.	.	.	.	.	.	.	.	.
8C'/	.	4A/	4F\	.	4a/	4f\	.	4f/ 4cc 4ff	.	4A/	4f\	.	4ff\	4aa\
8AA'/J	.	.	.	.	.	.	.	.	.	.	.	.	.	.
=196	=196	=196	=196	=196	=196	=196	=196	=196	=196	=196	=196	=196	=196	=196
4FF/	.	4A/	4F\	.	4a/	4f\	.	4f/ 4cc 4ff	.	4A/	4f\	2ryy	4ff\	4aa\
!LO:TX:b:t=fine &colon;/&colon;	!	!LO:TX:b:t=Fine &colon;/&colon;	!	!	!LO:TX:b:t=fine &colon;/&colon;	!	!	!LO:TX:b:t=fine &colon;/&colon;	!	!LO:TX:b:t=finis .	!LO:TX:b:t=finis &colon;/&colon;	!	!	!LO:TX:b:t=fine &colon;/&colon;
4r	.	4r	4ryy	.	4r	4ryy	.	4r	.	4r	4r	.	4r	4r
*	*	*v	*v	*	*	*	*	*	*	*	*	*	*	*
*	*	*	*	*v	*v	*	*	*	*	*	*	*	*
==	==	==	==	==	==	==	==	==	==	==	==	==
*-	*-	*-	*-	*-	*-	*-	*-	*-	*-	*-	*-	*-
!!!RDF**kern: | = vertical stroke
!!!system-decoration: [(s1,s2,s3)][(s4,s5)][(s6,s7,s8,s9)]
!!!ENC: Andrzej Kubiczek
!!!END: 2020-08-19
!!!ENC: Julita Ruszuk
!!!END: 2022-02-26
